(TURBO_DNA_ASPIRE)
 
G53 Z0
M752
 
(########_Troca_de_Ferramentas_########)
(Numero_da_Ferramenta:1)
(Descricao:Topo Raso (6 milímetros))
 
M6 T1
M3 S18000
 
G0 X-72.0000 Y55.0000 
G0   Z20.0800
G1   Z15.0000 F2500.0
G1 X-72.0032 Y54.8619 Z14.8480 
G1 X-72.0129 Y54.7216 Z14.6960 
G1 X-72.0296 Y54.5795 Z14.5440 
G1 X-72.0535 Y54.4361 Z14.3919 
G1 X-72.0848 Y54.2919 Z14.2399 
G1 X-72.1237 Y54.1474 Z14.0879 
G1 X-72.1704 Y54.0033 Z13.9359 
G1 X-72.2250 Y53.8600 Z13.7839 
G1 X-72.2876 Y53.7183 Z13.6319 
G1 X-72.3580 Y53.5788 Z13.4799 
G1 X-72.4362 Y53.4421 Z13.3279 
G1 X-72.5221 Y53.3089 Z13.1758 
G1 X-72.6153 Y53.1797 Z13.0238 
G1 X-72.7157 Y53.0553 Z12.8718 
G1 X-72.8228 Y52.9361 Z12.7198 
G1 X-72.9361 Y52.8228 Z12.5678 
G1 X-73.0553 Y52.7157 Z12.4158 
G1 X-73.1797 Y52.6153 Z12.2638 
G1 X-73.3089 Y52.5221 Z12.1118 
G1 X-73.4421 Y52.4362 Z11.9597 
G1 X-73.5788 Y52.3580 Z11.8077 
G1 X-73.7183 Y52.2876 Z11.6557 
G1 X-73.8600 Y52.2250 Z11.5037 
G1 X-74.0033 Y52.1704 Z11.3517 
G1 X-74.1474 Y52.1237 Z11.1997 
G1 X-74.2919 Y52.0848 Z11.0477 
G1 X-74.4361 Y52.0535 Z10.8957 
G1 X-74.5795 Y52.0296 Z10.7436 
G1 X-74.7216 Y52.0129 Z10.5916 
G1 X-74.8619 Y52.0032 Z10.4396 
G1 X-75.0000 Y52.0000 Z10.2876 
G1 X-85.3876  Z-0.1000 
G1 X-265.0000  Z-0.1000 F10000.0
G2 X-268.0000 Y55.0000 I0.0000 J3.0000 
G1  Y886.0000  
G2 X-265.0000 Y889.0000 I3.0000 J0.0000 
G1 X-75.0000   
G2 X-72.0000 Y886.0000 I0.0000 J-3.0000 
G1  Y55.0000  
G2 X-75.0000 Y52.0000 I-3.0000 J0.0000 
G1 X-85.3876   
G0   Z20.0800
G0 X-302.0000 Y70.0000 
G1   Z15.0000 F2500.0
G1 X-302.0032 Y69.8619 Z14.8480 
G1 X-302.0129 Y69.7216 Z14.6960 
G1 X-302.0296 Y69.5795 Z14.5440 
G1 X-302.0535 Y69.4361 Z14.3919 
G1 X-302.0847 Y69.2919 Z14.2399 
G1 X-302.1237 Y69.1474 Z14.0879 
G1 X-302.1704 Y69.0033 Z13.9359 
G1 X-302.2250 Y68.8600 Z13.7839 
G1 X-302.2876 Y68.7183 Z13.6319 
G1 X-302.3580 Y68.5788 Z13.4799 
G1 X-302.4362 Y68.4421 Z13.3279 
G1 X-302.5221 Y68.3089 Z13.1758 
G1 X-302.6154 Y68.1797 Z13.0238 
G1 X-302.7157 Y68.0553 Z12.8718 
G1 X-302.8228 Y67.9361 Z12.7198 
G1 X-302.9361 Y67.8228 Z12.5678 
G1 X-303.0553 Y67.7157 Z12.4158 
G1 X-303.1797 Y67.6153 Z12.2638 
G1 X-303.3089 Y67.5221 Z12.1118 
G1 X-303.4421 Y67.4362 Z11.9597 
G1 X-303.5788 Y67.3580 Z11.8077 
G1 X-303.7183 Y67.2876 Z11.6557 
G1 X-303.8600 Y67.2250 Z11.5037 
G1 X-304.0033 Y67.1704 Z11.3517 
G1 X-304.1474 Y67.1237 Z11.1997 
G1 X-304.2919 Y67.0848 Z11.0477 
G1 X-304.4361 Y67.0535 Z10.8957 
G1 X-304.5795 Y67.0296 Z10.7436 
G1 X-304.7216 Y67.0129 Z10.5916 
G1 X-304.8619 Y67.0032 Z10.4396 
G1 X-305.0000 Y67.0000 Z10.2876 
G1 X-315.3876  Z-0.1000 
G1 X-475.0000  Z-0.1000 F10000.0
G2 X-478.0000 Y70.0000 I0.0000 J3.0000 
G1  Y670.0000  
G2 X-475.0000 Y673.0000 I3.0000 J0.0000 
G1 X-305.0000   
G2 X-302.0000 Y670.0000 I0.0000 J-3.0000 
G1  Y70.0000  
G2 X-305.0000 Y67.0000 I-3.0000 J0.0000 
G1 X-315.3876   
G0   Z20.0800
G0 X-315.0000 Y932.0000 
G1   Z15.0000 F2500.0
G1 X-315.1381 Y932.0032 Z14.8480 
G1 X-315.2784 Y932.0129 Z14.6960 
G1 X-315.4205 Y932.0296 Z14.5440 
G1 X-315.5639 Y932.0535 Z14.3919 
G1 X-315.7081 Y932.0848 Z14.2399 
G1 X-315.8526 Y932.1237 Z14.0879 
G1 X-315.9967 Y932.1704 Z13.9359 
G1 X-316.1400 Y932.2250 Z13.7839 
G1 X-316.2817 Y932.2876 Z13.6319 
G1 X-316.4212 Y932.3580 Z13.4799 
G1 X-316.5579 Y932.4362 Z13.3279 
G1 X-316.6911 Y932.5221 Z13.1758 
G1 X-316.8203 Y932.6154 Z13.0238 
G1 X-316.9447 Y932.7157 Z12.8718 
G1 X-317.0639 Y932.8228 Z12.7198 
G1 X-317.1772 Y932.9361 Z12.5678 
G1 X-317.2843 Y933.0553 Z12.4158 
G1 X-317.3846 Y933.1797 Z12.2638 
G1 X-317.4779 Y933.3088 Z12.1118 
G1 X-317.5638 Y933.4421 Z11.9597 
G1 X-317.6420 Y933.5788 Z11.8077 
G1 X-317.7124 Y933.7183 Z11.6557 
G1 X-317.7750 Y933.8600 Z11.5037 
G1 X-317.8296 Y934.0033 Z11.3517 
G1 X-317.8763 Y934.1475 Z11.1997 
G1 X-317.9153 Y934.2919 Z11.0477 
G1 X-317.9465 Y934.4362 Z10.8957 
G1 X-317.9704 Y934.5795 Z10.7436 
G1 X-317.9871 Y934.7216 Z10.5916 
G1 X-317.9968 Y934.8619 Z10.4396 
G1 X-318.0000 Y935.0000 Z10.2876 
G1  Y945.3876 Z-0.1000 
G1  Y1535.0000  F10000.0
G2 X-315.0000 Y1538.0000 I3.0000 J0.0000 
G1 X-245.0000   
G2 X-242.0000 Y1535.0000 I0.0000 J-3.0000 
G1  Y935.0000  
G2 X-245.0000 Y932.0000 I-3.0000 J0.0000 
G1 X-315.0000   
G2 X-318.0000 Y935.0000 I0.0000 J3.0000 
G1  Y945.3876  
G0   Z20.0800
G0 X-193.0000 Y930.0000 
G1   Z15.0000 F2500.0
G1  Y945.1000 Z-0.1000 
G1  Y1745.0000 Z-0.1000 F10000.0
G2 X-190.0000 Y1748.0000 I3.0000 J0.0000 
G1 X-120.0000   
G2 X-117.0000 Y1745.0000 I0.0000 J-3.0000 
G1  Y930.0000  
G2 X-120.0000 Y927.0000 I-3.0000 J0.0000 
G1 X-190.0000   
G2 X-193.0000 Y930.0000 I0.0000 J3.0000 
G1  Y945.1000  
G0   Z20.0800
G0 X-507.0000 Y145.0000 Z20.0800
G1   Z15.0000 F2500.0
G1 X-507.0032 Y144.8619 Z14.8480 
G1 X-507.0129 Y144.7216 Z14.6960 
G1 X-507.0296 Y144.5795 Z14.5440 
G1 X-507.0535 Y144.4361 Z14.3919 
G1 X-507.0847 Y144.2919 Z14.2399 
G1 X-507.1237 Y144.1474 Z14.0879 
G1 X-507.1704 Y144.0033 Z13.9359 
G1 X-507.2250 Y143.8600 Z13.7839 
G1 X-507.2876 Y143.7183 Z13.6319 
G1 X-507.3580 Y143.5788 Z13.4799 
G1 X-507.4362 Y143.4421 Z13.3279 
G1 X-507.5221 Y143.3089 Z13.1758 
G1 X-507.6154 Y143.1797 Z13.0238 
G1 X-507.7157 Y143.0553 Z12.8718 
G1 X-507.8228 Y142.9361 Z12.7198 
G1 X-507.9361 Y142.8228 Z12.5678 
G1 X-508.0553 Y142.7157 Z12.4158 
G1 X-508.1797 Y142.6153 Z12.2638 
G1 X-508.3089 Y142.5221 Z12.1118 
G1 X-508.4421 Y142.4362 Z11.9597 
G1 X-508.5788 Y142.3580 Z11.8077 
G1 X-508.7183 Y142.2876 Z11.6557 
G1 X-508.8600 Y142.2250 Z11.5037 
G1 X-509.0033 Y142.1704 Z11.3517 
G1 X-509.1474 Y142.1237 Z11.1997 
G1 X-509.2919 Y142.0848 Z11.0477 
G1 X-509.4361 Y142.0535 Z10.8957 
G1 X-509.5795 Y142.0296 Z10.7436 
G1 X-509.7216 Y142.0129 Z10.5916 
G1 X-509.8619 Y142.0032 Z10.4396 
G1 X-510.0000 Y142.0000 Z10.2876 
G1 X-520.3876  Z-0.1000 
G1 X-560.0000   F10000.0
G2 X-563.0000 Y145.0000 I0.0000 J3.0000 
G1  Y700.0000  
G2 X-560.0000 Y703.0000 I3.0000 J0.0000 
G1 X-510.0000   
G2 X-507.0000 Y700.0000 I0.0000 J-3.0000 
G1  Y145.0000  
G2 X-510.0000 Y142.0000 I-3.0000 J0.0000 
G1 X-520.3876   
G0   Z20.0800
G0 X-465.0000 Y712.0000 
G1   Z15.0000 F2500.0
G1 X-465.1381 Y712.0032 Z14.8480 
G1 X-465.2784 Y712.0129 Z14.6960 
G1 X-465.4205 Y712.0296 Z14.5440 
G1 X-465.5639 Y712.0535 Z14.3919 
G1 X-465.7081 Y712.0848 Z14.2399 
G1 X-465.8526 Y712.1237 Z14.0879 
G1 X-465.9967 Y712.1704 Z13.9359 
G1 X-466.1400 Y712.2250 Z13.7839 
G1 X-466.2817 Y712.2876 Z13.6319 
G1 X-466.4212 Y712.3580 Z13.4799 
G1 X-466.5579 Y712.4362 Z13.3279 
G1 X-466.6911 Y712.5221 Z13.1758 
G1 X-466.8203 Y712.6154 Z13.0238 
G1 X-466.9447 Y712.7157 Z12.8718 
G1 X-467.0639 Y712.8228 Z12.7198 
G1 X-467.1772 Y712.9361 Z12.5678 
G1 X-467.2843 Y713.0553 Z12.4158 
G1 X-467.3846 Y713.1797 Z12.2638 
G1 X-467.4779 Y713.3088 Z12.1118 
G1 X-467.5638 Y713.4421 Z11.9597 
G1 X-467.6420 Y713.5788 Z11.8077 
G1 X-467.7124 Y713.7183 Z11.6557 
G1 X-467.7750 Y713.8600 Z11.5037 
G1 X-467.8296 Y714.0033 Z11.3517 
G1 X-467.8763 Y714.1475 Z11.1997 
G1 X-467.9153 Y714.2919 Z11.0477 
G1 X-467.9465 Y714.4362 Z10.8957 
G1 X-467.9704 Y714.5795 Z10.7436 
G1 X-467.9871 Y714.7216 Z10.5916 
G1 X-467.9968 Y714.8619 Z10.4396 
G1 X-468.0000 Y715.0000 Z10.2876 
G1  Y725.3876 Z-0.1000 
G1  Y1270.0000  F10000.0
G2 X-465.0000 Y1273.0000 I3.0000 J0.0000 
G1 X-415.0000   
G2 X-412.0000 Y1270.0000 I0.0000 J-3.0000 
G1  Y715.0000  
G2 X-415.0000 Y712.0000 I-3.0000 J0.0000 
G1 X-465.0000   
G2 X-468.0000 Y715.0000 I0.0000 J3.0000 
G1  Y725.3876  
G0   Z20.0800
 
M5
G53 Z0
M702
M704
M30
