(TURBO_DNA_ASPIRE)
 
G53 Z0
M752
 
(########_Troca_de_Ferramentas_########)
(Numero_da_Ferramenta:1)
(Descricao:Topo Raso (6 milímetros))
 
M6 T1
M3 S18000
 
G0 X-5.0000 Y8.0000 
G0   Z23.0800
G1   Z18.0000 F2500.0
G1 X-5.0032 Y7.8619 Z17.8480 
G1 X-5.0129 Y7.7216 Z17.6960 
G1 X-5.0296 Y7.5795 Z17.5440 
G1 X-5.0535 Y7.4361 Z17.3920 
G1 X-5.0848 Y7.2919 Z17.2399 
G1 X-5.1237 Y7.1474 Z17.0879 
G1 X-5.1704 Y7.0033 Z16.9359 
G1 X-5.2250 Y6.8600 Z16.7839 
G1 X-5.2876 Y6.7183 Z16.6319 
G1 X-5.3580 Y6.5788 Z16.4799 
G1 X-5.4362 Y6.4421 Z16.3279 
G1 X-5.5221 Y6.3089 Z16.1758 
G1 X-5.6153 Y6.1797 Z16.0238 
G1 X-5.7157 Y6.0553 Z15.8718 
G1 X-5.8228 Y5.9361 Z15.7198 
G1 X-5.9361 Y5.8228 Z15.5678 
G1 X-6.0553 Y5.7157 Z15.4158 
G1 X-6.1797 Y5.6153 Z15.2638 
G1 X-6.3089 Y5.5221 Z15.1118 
G1 X-6.4421 Y5.4362 Z14.9597 
G1 X-6.5788 Y5.3580 Z14.8077 
G1 X-6.7183 Y5.2876 Z14.6557 
G1 X-6.8600 Y5.2250 Z14.5037 
G1 X-7.0033 Y5.1704 Z14.3517 
G1 X-7.1474 Y5.1237 Z14.1997 
G1 X-7.2919 Y5.0848 Z14.0477 
G1 X-7.4361 Y5.0535 Z13.8957 
G1 X-7.5795 Y5.0296 Z13.7436 
G1 X-7.7216 Y5.0129 Z13.5916 
G1 X-7.8619 Y5.0032 Z13.4396 
G1 X-8.0000 Y5.0000 Z13.2876 
G1 X-21.3876  Z-0.1000 
G1 X-68.0000  Z-0.1000 F10000.0
G2 X-71.0000 Y8.0000 I0.0000 J3.0000 
G1  Y1685.9374  
X-71.0083 Y1688.6493 
X-71.0332 Y1691.3525 
X-71.0747 Y1694.0518 
X-71.1327 Y1696.7467 
X-71.2071 Y1699.4374 
X-71.2979 Y1702.1239 
X-71.4050 Y1704.8060 
X-71.5285 Y1707.4838 
X-71.6682 Y1710.1571 
X-71.8240 Y1712.8259 
X-71.9961 Y1715.4904 
X-72.1842 Y1718.1500 
X-72.3884 Y1720.8052 
X-72.6086 Y1723.4556 
X-72.8447 Y1726.1013 
X-73.0967 Y1728.7422 
X-73.3646 Y1731.3783 
X-73.6483 Y1734.0095 
X-73.9477 Y1736.6357 
X-74.2628 Y1739.2571 
X-74.5936 Y1741.8733 
X-74.9399 Y1744.4845 
X-75.3018 Y1747.0905 
X-75.6793 Y1749.6913 
X-76.0721 Y1752.2869 
X-76.4804 Y1754.8772 
X-76.9040 Y1757.4622 
X-77.3429 Y1760.0417 
X-77.7971 Y1762.6158 
X-78.2664 Y1765.1844 
X-78.7509 Y1767.7476 
X-79.2505 Y1770.3051 
X-79.7652 Y1772.8569 
X-80.2948 Y1775.4031 
X-80.8395 Y1777.9435 
X-81.3990 Y1780.4780 
X-81.9733 Y1783.0068 
X-82.5625 Y1785.5297 
X-83.1664 Y1788.0466 
X-83.7850 Y1790.5575 
X-84.4183 Y1793.0623 
X-85.0662 Y1795.5610 
X-85.7286 Y1798.0536 
X-86.4055 Y1800.5400 
X-87.0969 Y1803.0201 
X-87.8027 Y1805.4939 
X-88.5229 Y1807.9614 
X-89.2573 Y1810.4225 
X-90.0060 Y1812.8770 
X-90.7689 Y1815.3251 
X-91.5460 Y1817.7666 
X-92.3372 Y1820.2014 
X-93.1424 Y1822.6296 
X-93.9616 Y1825.0511 
X-94.7948 Y1827.4659 
X-95.6419 Y1829.8738 
X-96.5028 Y1832.2749 
X-97.3776 Y1834.6689 
X-98.2661 Y1837.0562 
X-99.1683 Y1839.4363 
X-100.0842 Y1841.8093 
X-101.0137 Y1844.1752 
X-101.9567 Y1846.5339 
X-102.9133 Y1848.8855 
X-103.8833 Y1851.2297 
X-104.8667 Y1853.5667 
X-105.8635 Y1855.8961 
X-106.8736 Y1858.2183 
X-107.8970 Y1860.5328 
X-108.9335 Y1862.8398 
X-109.9833 Y1865.1394 
X-111.0461 Y1867.4312 
X-112.1220 Y1869.7153 
X-113.2109 Y1871.9918 
X-114.3128 Y1874.2604 
X-115.4276 Y1876.5211 
X-116.5552 Y1878.7740 
X-117.6957 Y1881.0189 
X-118.8489 Y1883.2559 
X-120.0148 Y1885.4847 
X-121.1934 Y1887.7056 
X-122.3847 Y1889.9182 
X-123.5884 Y1892.1227 
X-124.8047 Y1894.3188 
X-126.0335 Y1896.5067 
X-127.2724 Y1898.6823 
X-129.7941 Y1903.0199 
X-132.3625 Y1907.3196 
X-134.9796 Y1911.5848 
X-137.6450 Y1915.8153 
X-140.3582 Y1920.0104 
X-143.1189 Y1924.1698 
X-145.9266 Y1928.2931 
X-148.7811 Y1932.3800 
X-151.6818 Y1936.4298 
X-154.6283 Y1940.4424 
X-157.6204 Y1944.4172 
X-160.6575 Y1948.3539 
X-163.7393 Y1952.2521 
X-166.8653 Y1956.1112 
X-170.0353 Y1959.9309 
X-173.2487 Y1963.7109 
X-176.5052 Y1967.4507 
X-179.8044 Y1971.1498 
X-183.1458 Y1974.8080 
X-186.5291 Y1978.4247 
X-189.9539 Y1981.9995 
X-193.4198 Y1985.5320 
X-196.9264 Y1989.0220 
X-200.4733 Y1992.4688 
X-204.0600 Y1995.8721 
X-207.6862 Y1999.2316 
X-211.3515 Y2002.5466 
X-215.0555 Y2005.8170 
X-218.7978 Y2009.0422 
X-222.5780 Y2012.2220 
X-226.3957 Y2015.3558 
X-230.2504 Y2018.4432 
X-234.1454 Y2021.4866 
X-236.1012 Y2022.9865 
X-238.0695 Y2024.4773 
X-240.0469 Y2025.9562 
X-242.0332 Y2027.4232 
X-244.0283 Y2028.8782 
X-246.0323 Y2030.3210 
X-248.0450 Y2031.7518 
X-250.0665 Y2033.1705 
X-252.0966 Y2034.5769 
X-254.1354 Y2035.9711 
X-256.1827 Y2037.3530 
X-258.2386 Y2038.7225 
X-260.3029 Y2040.0796 
X-262.3757 Y2041.4243 
X-264.4568 Y2042.7565 
X-266.5463 Y2044.0760 
X-268.6440 Y2045.3829 
X-270.7500 Y2046.6772 
X-272.8641 Y2047.9589 
X-274.9864 Y2049.2275 
X-277.1167 Y2050.4836 
X-279.2551 Y2051.7268 
X-281.4014 Y2052.9570 
X-283.5557 Y2054.1743 
X-285.7178 Y2055.3784 
X-287.8878 Y2056.5696 
X-290.0655 Y2057.7476 
X-292.2510 Y2058.9124 
X-294.4442 Y2060.0640 
X-296.6450 Y2061.2024 
X-298.8533 Y2062.3274 
X-301.0692 Y2063.4390 
X-303.2926 Y2064.5371 
X-305.5234 Y2065.6218 
X-307.7615 Y2066.6931 
X-310.0070 Y2067.7505 
X-312.2599 Y2068.7944 
X-314.5199 Y2069.8247 
X-316.7871 Y2070.8413 
X-319.0614 Y2071.8440 
X-321.3428 Y2072.8330 
X-323.6313 Y2073.8079 
X-325.9267 Y2074.7690 
X-328.2291 Y2075.7161 
X-330.5383 Y2076.6492 
X-332.8544 Y2077.5681 
X-335.1773 Y2078.4729 
X-337.5069 Y2079.3635 
X-339.8432 Y2080.2397 
X-342.1861 Y2081.1018 
X-344.5357 Y2081.9495 
X-346.8917 Y2082.7827 
X-349.2543 Y2083.6016 
X-351.6233 Y2084.4060 
X-353.9986 Y2085.1956 
X-356.3804 Y2085.9709 
X-358.7684 Y2086.7314 
X-361.1626 Y2087.4771 
X-363.5631 Y2088.2083 
X-365.9697 Y2088.9243 
X-368.3824 Y2089.6257 
X-370.8011 Y2090.3123 
X-373.2258 Y2090.9836 
X-375.6565 Y2091.6401 
X-378.0930 Y2092.2817 
X-380.5355 Y2092.9080 
X-382.9837 Y2093.5190 
X-385.4376 Y2094.1150 
X-387.8973 Y2094.6956 
X-390.3626 Y2095.2610 
X-392.8335 Y2095.8108 
X-395.3100 Y2096.3455 
X-397.7920 Y2096.8645 
X-400.2794 Y2097.3679 
X-402.7722 Y2097.8560 
X-405.2704 Y2098.3284 
X-407.7740 Y2098.7849 
X-410.2827 Y2099.2258 
X-412.7967 Y2099.6509 
X-415.3158 Y2100.0603 
X-417.8401 Y2100.4536 
X-420.3694 Y2100.8311 
X-422.9037 Y2101.1926 
X-425.4430 Y2101.5381 
X-427.9872 Y2101.8674 
X-430.5363 Y2102.1807 
X-433.0901 Y2102.4778 
X-435.6488 Y2102.7585 
X-438.2122 Y2103.0229 
X-440.7802 Y2103.2710 
X-443.3529 Y2103.5029 
X-445.9302 Y2103.7180 
X-448.5119 Y2103.9170 
X-451.0982 Y2104.0991 
X-453.6889 Y2104.2649 
X-456.2839 Y2104.4138 
X-458.8833 Y2104.5461 
X-461.4870 Y2104.6616 
X-464.0949 Y2104.7603 
X-466.7070 Y2104.8423 
X-469.3232 Y2104.9072 
X-471.9435 Y2104.9551 
X-474.5678 Y2104.9861 
X-477.1980 Y2105.0000 
X-477.9951  
X-480.6320 Y2104.9915 
X-483.2601 Y2104.9658 
X-485.8841 Y2104.9229 
X-488.5041 Y2104.8630 
X-491.1199 Y2104.7864 
X-493.7316 Y2104.6926 
X-496.3390 Y2104.5823 
X-498.9422 Y2104.4548 
X-501.5411 Y2104.3108 
X-504.1356 Y2104.1499 
X-506.7257 Y2103.9724 
X-509.3113 Y2103.7786 
X-511.8924 Y2103.5679 
X-514.4690 Y2103.3408 
X-517.0409 Y2103.0972 
X-519.6082 Y2102.8372 
X-522.1708 Y2102.5608 
X-524.7286 Y2102.2683 
X-527.2816 Y2101.9595 
X-529.8298 Y2101.6345 
X-532.3730 Y2101.2932 
X-534.9113 Y2100.9360 
X-537.4446 Y2100.5627 
X-539.9728 Y2100.1733 
X-542.4960 Y2099.7681 
X-545.0139 Y2099.3469 
X-547.5267 Y2098.9102 
X-550.0342 Y2098.4573 
X-552.5365 Y2097.9890 
X-555.0334 Y2097.5049 
X-557.5249 Y2097.0051 
X-560.0109 Y2096.4897 
X-562.4915 Y2095.9587 
X-564.9665 Y2095.4126 
X-567.4359 Y2094.8508 
X-569.8997 Y2094.2737 
X-572.3577 Y2093.6812 
X-574.8101 Y2093.0735 
X-577.2566 Y2092.4504 
X-579.6973 Y2091.8125 
X-582.1321 Y2091.1592 
X-584.5610 Y2090.4910 
X-586.9838 Y2089.8076 
X-589.4007 Y2089.1094 
X-591.8115 Y2088.3962 
X-594.2161 Y2087.6682 
X-596.6145 Y2086.9255 
X-599.0067 Y2086.1680 
X-601.3926 Y2085.3958 
X-603.7721 Y2084.6086 
X-606.1453 Y2083.8071 
X-608.5120 Y2082.9912 
X-610.8723 Y2082.1606 
X-613.2260 Y2081.3154 
X-615.5732 Y2080.4561 
X-617.9136 Y2079.5823 
X-620.2475 Y2078.6943 
X-622.5746 Y2077.7920 
X-624.8948 Y2076.8755 
X-627.2083 Y2075.9448 
X-629.5149 Y2075.0002 
X-631.8146 Y2074.0413 
X-634.1072 Y2073.0686 
X-636.3929 Y2072.0820 
X-638.6714 Y2071.0813 
X-640.9429 Y2070.0669 
X-643.2071 Y2069.0388 
X-645.4641 Y2067.9968 
X-647.7139 Y2066.9412 
X-649.9562 Y2065.8721 
X-652.1913 Y2064.7893 
X-654.4189 Y2063.6929 
X-656.6390 Y2062.5830 
X-658.8516 Y2061.4597 
X-661.0566 Y2060.3232 
X-663.2539 Y2059.1733 
X-665.4436 Y2058.0100 
X-667.6255 Y2056.8337 
X-669.7997 Y2055.6440 
X-671.9661 Y2054.4414 
X-674.1246 Y2053.2256 
X-676.2751 Y2051.9968 
X-678.4177 Y2050.7551 
X-680.5522 Y2049.5005 
X-682.6786 Y2048.2329 
X-684.7970 Y2046.9525 
X-686.9071 Y2045.6594 
X-689.0090 Y2044.3536 
X-691.1027 Y2043.0353 
X-693.1879 Y2041.7042 
X-695.2649 Y2040.3606 
X-697.3334 Y2039.0044 
X-699.3934 Y2037.6359 
X-701.4448 Y2036.2549 
X-703.4877 Y2034.8616 
X-705.5220 Y2033.4561 
X-707.5476 Y2032.0382 
X-709.5645 Y2030.6082 
X-711.5726 Y2029.1659 
X-713.5718 Y2027.7117 
X-715.5621 Y2026.2454 
X-717.5436 Y2024.7671 
X-719.5161 Y2023.2769 
X-721.4795 Y2021.7747 
X-723.4338 Y2020.2607 
X-725.3755 Y2018.7378 
X-729.2418 Y2015.6483 
X-733.0675 Y2012.5151 
X-736.8557 Y2009.3359 
X-740.6060 Y2006.1110 
X-744.3179 Y2002.8407 
X-747.9910 Y1999.5256 
X-751.6251 Y1996.1660 
X-755.2196 Y1992.7625 
X-758.7742 Y1989.3152 
X-762.2884 Y1985.8247 
X-765.7619 Y1982.2914 
X-769.1943 Y1978.7157 
X-772.5851 Y1975.0980 
X-775.9340 Y1971.4388 
X-779.2405 Y1967.7384 
X-782.5043 Y1963.9972 
X-785.7250 Y1960.2157 
X-788.9020 Y1956.3942 
X-792.0352 Y1952.5332 
X-795.1240 Y1948.6332 
X-798.1681 Y1944.6943 
X-801.1670 Y1940.7173 
X-804.1204 Y1936.7024 
X-807.0278 Y1932.6500 
X-809.8889 Y1928.5605 
X-812.7031 Y1924.4346 
X-815.4703 Y1920.2722 
X-818.1899 Y1916.0741 
X-820.8639 Y1911.8368 
X-822.1793 Y1909.7107 
X-823.4849 Y1907.5721 
X-824.7783 Y1905.4249 
X-826.0594 Y1903.2690 
X-827.3282 Y1901.1047 
X-828.5848 Y1898.9319 
X-829.8289 Y1896.7506 
X-831.0606 Y1894.5609 
X-832.2798 Y1892.3629 
X-833.4865 Y1890.1566 
X-834.6805 Y1887.9420 
X-835.8620 Y1885.7194 
X-837.0307 Y1883.4885 
X-838.1867 Y1881.2495 
X-839.3300 Y1879.0027 
X-840.4603 Y1876.7477 
X-841.5778 Y1874.4849 
X-842.6824 Y1872.2141 
X-843.7739 Y1869.9357 
X-844.8525 Y1867.6493 
X-845.9179 Y1865.3553 
X-846.9702 Y1863.0536 
X-848.0093 Y1860.7443 
X-849.0352 Y1858.4275 
X-850.0477 Y1856.1030 
X-851.0470 Y1853.7712 
X-852.0328 Y1851.4320 
X-853.0052 Y1849.0853 
X-853.9642 Y1846.7314 
X-854.9095 Y1844.3702 
X-855.8414 Y1842.0020 
X-856.7595 Y1839.6263 
X-857.6640 Y1837.2438 
X-858.5547 Y1834.8541 
X-859.4316 Y1832.4574 
X-860.2947 Y1830.0538 
X-861.1440 Y1827.6433 
X-861.9792 Y1825.2260 
X-862.8005 Y1822.8018 
X-863.6078 Y1820.3708 
X-864.4009 Y1817.9332 
X-865.1800 Y1815.4890 
X-865.9448 Y1813.0382 
X-866.6954 Y1810.5808 
X-867.4317 Y1808.1171 
X-868.1537 Y1805.6467 
X-868.8613 Y1803.1700 
X-869.5544 Y1800.6871 
X-870.2331 Y1798.1979 
X-870.8972 Y1795.7023 
X-871.5468 Y1793.2007 
X-872.1816 Y1790.6929 
X-872.8018 Y1788.1790 
X-873.4073 Y1785.6591 
X-873.9980 Y1783.1332 
X-874.5739 Y1780.6013 
X-875.1348 Y1778.0636 
X-875.6808 Y1775.5201 
X-876.2119 Y1772.9708 
X-876.7278 Y1770.4159 
X-877.2287 Y1767.8552 
X-877.7145 Y1765.2889 
X-878.1851 Y1762.7170 
X-878.6404 Y1760.1396 
X-879.0804 Y1757.5569 
X-879.5052 Y1754.9686 
X-879.9145 Y1752.3750 
X-880.3083 Y1749.7761 
X-880.6868 Y1747.1719 
X-881.0496 Y1744.5625 
X-881.3969 Y1741.9480 
X-881.7285 Y1739.3284 
X-882.0445 Y1736.7036 
X-882.3447 Y1734.0740 
X-882.6291 Y1731.4393 
X-882.8977 Y1728.7997 
X-883.1504 Y1726.1553 
X-883.3871 Y1723.5061 
X-883.6079 Y1720.8521 
X-883.8126 Y1718.1934 
X-884.0013 Y1715.5300 
X-884.1738 Y1712.8622 
X-884.3301 Y1710.1897 
X-884.4702 Y1707.5127 
X-884.5939 Y1704.8313 
X-884.7014 Y1702.1455 
X-884.7924 Y1699.4553 
X-884.8670 Y1696.7609 
X-884.9251 Y1694.0623 
X-884.9667 Y1691.3594 
X-884.9916 Y1688.6523 
X-885.0000 Y1685.9365 
 Y8.0000 
G2 X-888.0000 Y5.0000 I-3.0000 J0.0000 
G1 X-948.0000   
G2 X-951.0000 Y8.0000 I0.0000 J3.0000 
G1  Y2168.0000  
G2 X-948.0000 Y2171.0000 I3.0000 J0.0000 
G1 X-8.0000   
G2 X-5.0000 Y2168.0000 I0.0000 J-3.0000 
G1  Y8.0000  
G2 X-8.0000 Y5.0000 I-3.0000 J0.0000 
G1 X-21.3876   
G0   Z23.0800
 
M5
G53 Z0
M702
M704
M30
