(TURBO_DNA_ASPIRE)
 
G53 Z0
M752
 
(########_Troca_de_Ferramentas_########)
(Numero_da_Ferramenta:1)
(Descricao:Topo Raso (6 milímetros))
 
M6 T1
M3 S18000
 
G0 X-4.0000 Y7.0000 
G0   Z23.0800
G1   Z18.0000 F2500.0
G1 X-4.0032 Y6.8619 Z17.8480 
G1 X-4.0129 Y6.7216 Z17.6960 
G1 X-4.0296 Y6.5795 Z17.5440 
G1 X-4.0535 Y6.4361 Z17.3920 
G1 X-4.0848 Y6.2919 Z17.2399 
G1 X-4.1237 Y6.1474 Z17.0879 
G1 X-4.1704 Y6.0033 Z16.9359 
G1 X-4.2250 Y5.8600 Z16.7839 
G1 X-4.2876 Y5.7183 Z16.6319 
G1 X-4.3580 Y5.5788 Z16.4799 
G1 X-4.4362 Y5.4421 Z16.3279 
G1 X-4.5221 Y5.3089 Z16.1758 
G1 X-4.6153 Y5.1797 Z16.0238 
G1 X-4.7157 Y5.0553 Z15.8718 
G1 X-4.8228 Y4.9361 Z15.7198 
G1 X-4.9361 Y4.8228 Z15.5678 
G1 X-5.0553 Y4.7157 Z15.4158 
G1 X-5.1797 Y4.6153 Z15.2638 
G1 X-5.3089 Y4.5221 Z15.1118 
G1 X-5.4421 Y4.4362 Z14.9597 
G1 X-5.5788 Y4.3580 Z14.8077 
G1 X-5.7183 Y4.2876 Z14.6557 
G1 X-5.8600 Y4.2250 Z14.5037 
G1 X-6.0033 Y4.1704 Z14.3517 
G1 X-6.1474 Y4.1237 Z14.1997 
G1 X-6.2919 Y4.0848 Z14.0477 
G1 X-6.4361 Y4.0535 Z13.8957 
G1 X-6.5795 Y4.0296 Z13.7436 
G1 X-6.7216 Y4.0129 Z13.5916 
G1 X-6.8619 Y4.0032 Z13.4396 
G1 X-7.0000 Y4.0000 Z13.2876 
G1 X-20.3876  Z-0.1000 
G1 X-667.0000  Z-0.1000 F10000.0
G2 X-670.0000 Y7.0000 I0.0000 J3.0000 
G1  Y2592.0000  
G2 X-667.0000 Y2595.0000 I3.0000 J0.0000 
G1 X-7.0000   
G2 X-4.0000 Y2592.0000 I0.0000 J-3.0000 
G1  Y7.0000  
G2 X-7.0000 Y4.0000 I-3.0000 J0.0000 
G1 X-20.3876   
G0   Z23.0800
G0 X-671.0000 Y7.0000 
G1   Z18.0000 F2500.0
G1 X-671.0032 Y6.8619 Z17.8480 
G1 X-671.0129 Y6.7216 Z17.6960 
G1 X-671.0296 Y6.5795 Z17.5440 
G1 X-671.0535 Y6.4361 Z17.3920 
G1 X-671.0848 Y6.2919 Z17.2399 
G1 X-671.1237 Y6.1474 Z17.0879 
G1 X-671.1704 Y6.0033 Z16.9359 
G1 X-671.2250 Y5.8600 Z16.7839 
G1 X-671.2876 Y5.7183 Z16.6319 
G1 X-671.3580 Y5.5788 Z16.4799 
G1 X-671.4362 Y5.4421 Z16.3279 
G1 X-671.5221 Y5.3089 Z16.1758 
G1 X-671.6154 Y5.1797 Z16.0238 
G1 X-671.7157 Y5.0553 Z15.8718 
G1 X-671.8228 Y4.9361 Z15.7198 
G1 X-671.9361 Y4.8228 Z15.5678 
G1 X-672.0553 Y4.7157 Z15.4158 
G1 X-672.1797 Y4.6153 Z15.2638 
G1 X-672.3088 Y4.5221 Z15.1118 
G1 X-672.4421 Y4.4362 Z14.9597 
G1 X-672.5788 Y4.3580 Z14.8077 
G1 X-672.7183 Y4.2876 Z14.6557 
G1 X-672.8600 Y4.2250 Z14.5037 
G1 X-673.0033 Y4.1704 Z14.3517 
G1 X-673.1475 Y4.1237 Z14.1997 
G1 X-673.2919 Y4.0848 Z14.0477 
G1 X-673.4362 Y4.0535 Z13.8957 
G1 X-673.5795 Y4.0296 Z13.7436 
G1 X-673.7216 Y4.0129 Z13.5916 
G1 X-673.8619 Y4.0032 Z13.4396 
G1 X-674.0000 Y4.0000 Z13.2876 
G1 X-687.3876  Z-0.1000 
G1 X-1334.0000   F10000.0
G2 X-1337.0000 Y7.0000 I0.0000 J3.0000 
G1  Y2195.0000  
G2 X-1334.0000 Y2198.0000 I3.0000 J0.0000 
G1 X-674.0000   
G2 X-671.0000 Y2195.0000 I0.0000 J-3.0000 
G1  Y7.0000  
G2 X-674.0000 Y4.0000 I-3.0000 J0.0000 
G1 X-687.3876   
G0   Z23.0800
G0 X-1338.0000 Y7.0000 
G1   Z18.0000 F2500.0
G1 X-1338.0032 Y6.8619 Z17.8480 
G1 X-1338.0129 Y6.7216 Z17.6960 
G1 X-1338.0297 Y6.5795 Z17.5440 
G1 X-1338.0535 Y6.4361 Z17.3920 
G1 X-1338.0847 Y6.2919 Z17.2399 
G1 X-1338.1237 Y6.1474 Z17.0879 
G1 X-1338.1704 Y6.0033 Z16.9359 
G1 X-1338.2250 Y5.8600 Z16.7839 
G1 X-1338.2876 Y5.7183 Z16.6319 
G1 X-1338.3580 Y5.5788 Z16.4799 
G1 X-1338.4363 Y5.4421 Z16.3279 
G1 X-1338.5221 Y5.3089 Z16.1758 
G1 X-1338.6154 Y5.1797 Z16.0238 
G1 X-1338.7157 Y5.0553 Z15.8718 
G1 X-1338.8228 Y4.9361 Z15.7198 
G1 X-1338.9362 Y4.8228 Z15.5678 
G1 X-1339.0553 Y4.7157 Z15.4158 
G1 X-1339.1797 Y4.6153 Z15.2638 
G1 X-1339.3088 Y4.5221 Z15.1118 
G1 X-1339.4421 Y4.4362 Z14.9597 
G1 X-1339.5787 Y4.3580 Z14.8077 
G1 X-1339.7183 Y4.2876 Z14.6557 
G1 X-1339.8600 Y4.2250 Z14.5037 
G1 X-1340.0033 Y4.1704 Z14.3517 
G1 X-1340.1475 Y4.1237 Z14.1997 
G1 X-1340.2919 Y4.0848 Z14.0477 
G1 X-1340.4362 Y4.0535 Z13.8957 
G1 X-1340.5796 Y4.0296 Z13.7436 
G1 X-1340.7216 Y4.0129 Z13.5916 
G1 X-1340.8619 Y4.0032 Z13.4396 
G1 X-1341.0000 Y4.0000 Z13.2876 
G1 X-1354.3876  Z-0.1000 
G1 X-1833.0000  Z-0.1000 F10000.0
G2 X-1836.0000 Y7.0000 I0.0000 J3.0000 
G1  Y2707.0000  
G2 X-1833.0000 Y2710.0000 I3.0000 J0.0000 
G1 X-1341.0000   
G2 X-1338.0000 Y2707.0000 I0.0000 J-3.0000 
G1  Y7.0000  
G2 X-1341.0000 Y4.0000 I-3.0000 J0.0000 
G1 X-1354.3876   
G0   Z23.0800
G0 X-1197.0000 Y2199.0000 
G1   Z18.0000 F2500.0
G1 X-1197.1381 Y2199.0032 Z17.8480 
G1 X-1197.2784 Y2199.0129 Z17.6960 
G1 X-1197.4204 Y2199.0295 Z17.5440 
G1 X-1197.5638 Y2199.0535 Z17.3920 
G1 X-1197.7081 Y2199.0847 Z17.2399 
G1 X-1197.8525 Y2199.1238 Z17.0879 
G1 X-1197.9967 Y2199.1704 Z16.9359 
G1 X-1198.1400 Y2199.2251 Z16.7839 
G1 X-1198.2817 Y2199.2876 Z16.6319 
G1 X-1198.4213 Y2199.3579 Z16.4799 
G1 X-1198.5579 Y2199.4363 Z16.3279 
G1 X-1198.6912 Y2199.5220 Z16.1758 
G1 X-1198.8203 Y2199.6152 Z16.0238 
G1 X-1198.9447 Y2199.7156 Z15.8718 
G1 X-1199.0638 Y2199.8228 Z15.7198 
G1 X-1199.1772 Y2199.9360 Z15.5678 
G1 X-1199.2843 Y2200.0552 Z15.4158 
G1 X-1199.3846 Y2200.1797 Z15.2638 
G1 X-1199.4779 Y2200.3088 Z15.1118 
G1 X-1199.5637 Y2200.4421 Z14.9597 
G1 X-1199.6420 Y2200.5789 Z14.8077 
G1 X-1199.7124 Y2200.7183 Z14.6557 
G1 X-1199.7750 Y2200.8601 Z14.5037 
G1 X-1199.8296 Y2201.0032 Z14.3517 
G1 X-1199.8763 Y2201.1475 Z14.1997 
G1 X-1199.9153 Y2201.2920 Z14.0477 
G1 X-1199.9465 Y2201.4360 Z13.8957 
G1 X-1199.9703 Y2201.5796 Z13.7436 
G1 X-1199.9871 Y2201.7217 Z13.5916 
G1 X-1199.9968 Y2201.8618 Z13.4396 
G1 X-1200.0000 Y2202.0000 Z13.2876 
G1  Y2215.3877 Z-0.1000 
G1  Y2738.0000  F10000.0
G2 X-1197.0000 Y2741.0000 I3.0000 J0.0000 
G1 X-674.0000   
G2 X-671.0000 Y2738.0000 I0.0000 J-3.0000 
G1  Y2202.0000  
G2 X-674.0000 Y2199.0000 I-3.0000 J0.0000 
G1 X-1197.0000   
G2 X-1200.0000 Y2202.0000 I0.0000 J3.0000 
G1  Y2215.3877  
G0   Z23.0800
 
M5
G53 Z0
M702
M704
M30
