(TURBO_DNA_ASPIRE)
 
G53 Z0
M752
 
(########_Troca_de_Ferramentas_########)
(Numero_da_Ferramenta:1)
(Descricao:Topo Raso (6 milímetros))
 
M6 T1
M3 S18000
 
G0 X-977.0000 Y563.5000 
G0   Z20.0800
G1   Z15.0000 F2500.0
G1 X-977.0032 Y563.3619 Z14.8480 
G1 X-977.0129 Y563.2216 Z14.6960 
G1 X-977.0296 Y563.0795 Z14.5440 
G1 X-977.0535 Y562.9362 Z14.3919 
G1 X-977.0848 Y562.7919 Z14.2399 
G1 X-977.1237 Y562.6475 Z14.0879 
G1 X-977.1704 Y562.5033 Z13.9359 
G1 X-977.2250 Y562.3600 Z13.7839 
G1 X-977.2876 Y562.2183 Z13.6319 
G1 X-977.3580 Y562.0788 Z13.4799 
G1 X-977.4362 Y561.9421 Z13.3279 
G1 X-977.5221 Y561.8088 Z13.1758 
G1 X-977.6154 Y561.6797 Z13.0238 
G1 X-977.7157 Y561.5553 Z12.8718 
G1 X-977.8228 Y561.4361 Z12.7198 
G1 X-977.9361 Y561.3228 Z12.5678 
G1 X-978.0553 Y561.2157 Z12.4158 
G1 X-978.1797 Y561.1154 Z12.2638 
G1 X-978.3088 Y561.0221 Z12.1118 
G1 X-978.4421 Y560.9362 Z11.9597 
G1 X-978.5788 Y560.8580 Z11.8077 
G1 X-978.7183 Y560.7876 Z11.6557 
G1 X-978.8600 Y560.7250 Z11.5037 
G1 X-979.0033 Y560.6704 Z11.3517 
G1 X-979.1475 Y560.6237 Z11.1997 
G1 X-979.2919 Y560.5848 Z11.0477 
G1 X-979.4362 Y560.5535 Z10.8957 
G1 X-979.5795 Y560.5296 Z10.7436 
G1 X-979.7216 Y560.5129 Z10.5916 
G1 X-979.8619 Y560.5032 Z10.4396 
G1 X-980.0000 Y560.5000 Z10.2876 
G1 X-990.3876  Z-0.1000 
G1 X-1180.0000   F10000.0
G2 X-1183.0000 Y563.5000 I0.0000 J3.0000 
G1  Y1046.5000  
G2 X-1180.0000 Y1049.5000 I3.0000 J0.0000 
G1 X-980.0000   
G2 X-977.0000 Y1046.5000 I0.0000 J-3.0000 
G1  Y563.5000  
G2 X-980.0000 Y560.5000 I-3.0000 J0.0000 
G1 X-990.3876   
G0   Z20.0800
G0 X-1010.0000 Y1112.0000 
G1   Z15.0000 F2500.0
G1 X-1025.1000  Z-0.1000 
G1 X-1210.0000  Z-0.1000 F10000.0
G2 X-1213.0000 Y1115.0000 I0.0000 J3.0000 
G1  Y1553.0000  
G2 X-1210.0000 Y1556.0000 I3.0000 J0.0000 
G1 X-1010.0000   
G2 X-1007.0000 Y1553.0000 I0.0000 J-3.0000 
G1  Y1115.0000  
G2 X-1010.0000 Y1112.0000 I-3.0000 J0.0000 
G1 X-1025.1000   
G0   Z20.0800
G0 X-1005.0000 Y1632.0000 
G1   Z15.0000 F2500.0
G1 X-1020.1000  Z-0.1000 
G1 X-1205.0000  Z-0.1000 F10000.0
G2 X-1208.0000 Y1635.0000 I0.0000 J3.0000 
G1  Y2073.0000  
G2 X-1205.0000 Y2076.0000 I3.0000 J0.0000 
G1 X-1005.0000   
G2 X-1002.0000 Y2073.0000 I0.0000 J-3.0000 
G1  Y1635.0000  
G2 X-1005.0000 Y1632.0000 I-3.0000 J0.0000 
G1 X-1020.1000   
G0   Z20.0800
G0 X-1145.0000 Y2187.0000 
G1   Z15.0000 F2500.0
G1 X-1160.1000  Z-0.1000 
G1 X-1515.0000  Z-0.1000 F10000.0
G2 X-1518.0000 Y2190.0000 I0.0000 J3.0000 
G1  Y2675.0000  
G2 X-1515.0000 Y2678.0000 I3.0000 J0.0000 
G1 X-1145.0000   
G2 X-1142.0000 Y2675.0000 I0.0000 J-3.0000 
G1  Y2190.0000  
G2 X-1145.0000 Y2187.0000 I-3.0000 J0.0000 
G1 X-1160.1000   
G0   Z20.0800
G0 X-1063.0000 Y2230.0000 
G1   Z15.0000 F2500.0
G1  Y2245.1001 Z-0.1000 
G1  Y2668.0000  F10000.0
G2 X-1060.0000 Y2671.0000 I3.0000 J0.0000 
G1 X-690.0000   
G2 X-687.0000 Y2668.0000 I0.0000 J-3.0000 
G1  Y2230.0000  
G2 X-690.0000 Y2227.0000 I-3.0000 J0.0000 
G1 X-1060.0000   
G2 X-1063.0000 Y2230.0000 I0.0000 J3.0000 
G1  Y2245.1001  
G0   Z20.0800
G0 X-935.0000 Y1808.0000 
G1   Z15.0000 F2500.0
G1 X-919.9000  Z-0.1000 
G1 X-735.0000  Z-0.1000 F10000.0
G2 X-732.0000 Y1805.0000 I0.0000 J-3.0000 
G1  Y1405.0000  
G2 X-735.0000 Y1402.0000 I-3.0000 J0.0000 
G1 X-935.0000   
G2 X-938.0000 Y1405.0000 I0.0000 J3.0000 
G1  Y1805.0000  
G2 X-935.0000 Y1808.0000 I3.0000 J0.0000 
G1 X-919.9000   
G0   Z20.0800
G0 X-925.0000 Y1363.0000 
G1   Z15.0000 F2500.0
G1 X-909.9000  Z-0.1000 
G1 X-725.0000  Z-0.1000 F10000.0
G2 X-722.0000 Y1360.0000 I0.0000 J-3.0000 
G1  Y960.0000  
G2 X-725.0000 Y957.0000 I-3.0000 J0.0000 
G1 X-925.0000   
G2 X-928.0000 Y960.0000 I0.0000 J3.0000 
G1  Y1360.0000  
G2 X-925.0000 Y1363.0000 I3.0000 J0.0000 
G1 X-909.9000   
G0   Z20.0800
G0 X-910.0000 Y913.0000 
G1   Z15.0000 F2500.0
G1 X-894.9000  Z-0.1000 
G1 X-710.0000  Z-0.1000 F10000.0
G2 X-707.0000 Y910.0000 I0.0000 J-3.0000 
G1  Y510.0000  
G2 X-710.0000 Y507.0000 I-3.0000 J0.0000 
G1 X-910.0000   
G2 X-913.0000 Y510.0000 I0.0000 J3.0000 
G1  Y910.0000  
G2 X-910.0000 Y913.0000 I3.0000 J0.0000 
G1 X-894.9000   
G0   Z20.0800
G0 X-890.0000 Y453.0000 
G1   Z15.0000 F2500.0
G1 X-874.9000  Z-0.1000 
G1 X-690.0000  Z-0.1000 F10000.0
G2 X-687.0000 Y450.0000 I0.0000 J-3.0000 
G1  Y50.0000  
G2 X-690.0000 Y47.0000 I-3.0000 J0.0000 
G1 X-890.0000   
G2 X-893.0000 Y50.0000 I0.0000 J3.0000 
G1  Y450.0000  
G2 X-890.0000 Y453.0000 I3.0000 J0.0000 
G1 X-874.9000   
G0   Z20.0800
G0 X-932.0000 Y538.0000 
G1   Z15.0000 F2500.0
G1  Y522.9000 Z-0.1000 
G1  Y55.0000 Z-0.1000 F10000.0
G2 X-935.0000 Y52.0000 I-3.0000 J0.0000 
G1 X-1135.0000   
G2 X-1138.0000 Y55.0000 I0.0000 J3.0000 
G1  Y538.0000  
G2 X-1135.0000 Y541.0000 I3.0000 J0.0000 
G1 X-935.0000   
G2 X-932.0000 Y538.0000 I0.0000 J-3.0000 
G1  Y522.9000  
G0   Z20.0800
G0 X-1332.0000 Y40.0000 Z20.0800
G1   Z15.0000 F2500.0
G1 X-1332.0032 Y39.8619 Z14.8480 
G1 X-1332.0129 Y39.7216 Z14.6960 
G1 X-1332.0297 Y39.5795 Z14.5440 
G1 X-1332.0535 Y39.4361 Z14.3919 
G1 X-1332.0847 Y39.2919 Z14.2399 
G1 X-1332.1237 Y39.1474 Z14.0879 
G1 X-1332.1704 Y39.0033 Z13.9359 
G1 X-1332.2250 Y38.8600 Z13.7839 
G1 X-1332.2876 Y38.7183 Z13.6319 
G1 X-1332.3580 Y38.5788 Z13.4799 
G1 X-1332.4363 Y38.4421 Z13.3279 
G1 X-1332.5221 Y38.3089 Z13.1758 
G1 X-1332.6154 Y38.1797 Z13.0238 
G1 X-1332.7157 Y38.0553 Z12.8718 
G1 X-1332.8228 Y37.9361 Z12.7198 
G1 X-1332.9362 Y37.8228 Z12.5678 
G1 X-1333.0553 Y37.7157 Z12.4158 
G1 X-1333.1797 Y37.6153 Z12.2638 
G1 X-1333.3088 Y37.5221 Z12.1118 
G1 X-1333.4421 Y37.4362 Z11.9597 
G1 X-1333.5787 Y37.3580 Z11.8077 
G1 X-1333.7183 Y37.2876 Z11.6557 
G1 X-1333.8600 Y37.2250 Z11.5037 
G1 X-1334.0033 Y37.1704 Z11.3517 
G1 X-1334.1475 Y37.1237 Z11.1997 
G1 X-1334.2919 Y37.0848 Z11.0477 
G1 X-1334.4362 Y37.0535 Z10.8957 
G1 X-1334.5796 Y37.0296 Z10.7436 
G1 X-1334.7216 Y37.0129 Z10.5916 
G1 X-1334.8619 Y37.0032 Z10.4396 
G1 X-1335.0000 Y37.0000 Z10.2876 
G1 X-1345.3876  Z-0.1000 
G1 X-1815.0000  Z-0.1000 F10000.0
G2 X-1818.0000 Y40.0000 I0.0000 J3.0000 
G1  Y515.0000  
G2 X-1815.0000 Y518.0000 I3.0000 J0.0000 
G1 X-1335.0000   
G2 X-1332.0000 Y515.0000 I0.0000 J-3.0000 
G1  Y40.0000  
G2 X-1335.0000 Y37.0000 I-3.0000 J0.0000 
G1 X-1345.3876   
G0   Z20.0800
G0 X-1262.5000 Y549.5000 
G1   Z15.0000 F2500.0
G1 X-1277.6000  Z-0.1000 
G1 X-1787.5000  Z-0.1000 F10000.0
G2 X-1790.5000 Y552.5000 I0.0000 J3.0000 
G1  Y1027.5000  
G2 X-1787.5000 Y1030.5000 I3.0000 J0.0000 
G1 X-1262.5000   
G2 X-1259.5000 Y1027.5000 I0.0000 J-3.0000 
G1  Y552.5000  
G2 X-1262.5000 Y549.5000 I-3.0000 J0.0000 
G1 X-1277.6000   
G0   Z20.0800
G0 X-1260.0000 Y1112.0000 
G1   Z15.0000 F2500.0
G1 X-1275.1000  Z-0.1000 
G1 X-1310.0000  Z-0.1000 F10000.0
G2 X-1313.0000 Y1115.0000 I0.0000 J3.0000 
G1  Y1625.0000  
G2 X-1310.0000 Y1628.0000 I3.0000 J0.0000 
G1 X-1260.0000   
G2 X-1257.0000 Y1625.0000 I0.0000 J-3.0000 
G1  Y1115.0000  
G2 X-1260.0000 Y1112.0000 I-3.0000 J0.0000 
G1 X-1275.1000   
G0   Z20.0800
G0 X-1255.0000 Y1642.0000 
G1   Z15.0000 F2500.0
G1 X-1270.1000  Z-0.1000 
G1 X-1305.0000  Z-0.1000 F10000.0
G2 X-1308.0000 Y1645.0000 I0.0000 J3.0000 
G1  Y2155.0000  
G2 X-1305.0000 Y2158.0000 I3.0000 J0.0000 
G1 X-1255.0000   
G2 X-1252.0000 Y2155.0000 I0.0000 J-3.0000 
G1  Y1645.0000  
G2 X-1255.0000 Y1642.0000 I-3.0000 J0.0000 
G1 X-1270.1000   
G0   Z20.0800
 
M5
G53 Z0
M702
M704
M30
