( Powered by Mach CNC )
( Criacao: 2026-02-12T17:28:01 )
( Pos processador:  Mach3D Corte  - TURBO )
( Versao:  26.2.10 )
( Lote:  hellena_Oasis 15mm_1.nc )
( Material:  Oasis 15mm )
( Dimensoes:  X:1840.0000 Y:2750.0000 Z:15.0000 )
( Ferramentas para execucao: )
( 5 - broca 35 )
( 3 - broca 4 )
( 2 - broca 3 )
( 4 - broca 15 )
( 1 - Fresa 6mm )
( 6 - Fresa Vbit 45 )

(######## HEADER ########)
G53Z0 
M752 (Logica Inicial)



M6 T3 
M3 S2500.0000

(FURO_D3_P1)
G0 X-883.4015Y84.0000Z50.0000
G0 X-883.4015Y84.0000Z20.0000
(Step:1/1)
G1 X-883.4015Y84.0000Z14.0000F5000.0000
G0 X-883.4015Y84.0000Z20.0000
G0 X-883.4015Y84.0000Z50.0000
(FURO_D3_P1)
G0 X-883.4015Y132.0000Z50.0000
G0 X-883.4015Y132.0000Z20.0000
(Step:1/1)
G1 X-883.4015Y132.0000Z14.0000F5000.0000
G0 X-883.4015Y132.0000Z20.0000
G0 X-883.4015Y132.0000Z50.0000
(FURO_D3_P1)
G0 X-883.4015Y555.3000Z50.0000
G0 X-883.4015Y555.3000Z20.0000
(Step:1/1)
G1 X-883.4015Y555.3000Z14.0000F5000.0000
G0 X-883.4015Y555.3000Z20.0000
G0 X-883.4015Y555.3000Z50.0000
(FURO_D3_P1)
G0 X-883.4015Y603.3000Z50.0000
G0 X-883.4015Y603.3000Z20.0000
(Step:1/1)
G1 X-883.4015Y603.3000Z14.0000F5000.0000
G0 X-883.4015Y603.3000Z20.0000
G0 X-883.4015Y603.3000Z50.0000
(FURO_D3_P1)
G0 X-883.4015Y1026.7000Z50.0000
G0 X-883.4015Y1026.7000Z20.0000
(Step:1/1)
G1 X-883.4015Y1026.7000Z14.0000F5000.0000
G0 X-883.4015Y1026.7000Z20.0000
G0 X-883.4015Y1026.7000Z50.0000
(FURO_D3_P1)
G0 X-883.4015Y1074.7000Z50.0000
G0 X-883.4015Y1074.7000Z20.0000
(Step:1/1)
G1 X-883.4015Y1074.7000Z14.0000F5000.0000
G0 X-883.4015Y1074.7000Z20.0000
G0 X-883.4015Y1074.7000Z50.0000
(FURO_D3_P1)
G0 X-883.4015Y1498.0000Z50.0000
G0 X-883.4015Y1498.0000Z20.0000
(Step:1/1)
G1 X-883.4015Y1498.0000Z14.0000F5000.0000
G0 X-883.4015Y1498.0000Z20.0000
G0 X-883.4015Y1498.0000Z50.0000
(FURO_D3_P1)
G0 X-883.4015Y1546.0000Z50.0000
G0 X-883.4015Y1546.0000Z20.0000
(Step:1/1)
G1 X-883.4015Y1546.0000Z14.0000F5000.0000
G0 X-883.4015Y1546.0000Z20.0000
G0 X-883.4015Y1546.0000Z50.0000
(FURO_D3_P1)
G0 X-1376.9995Y1546.0000Z50.0000
G0 X-1376.9995Y1546.0000Z20.0000
(Step:1/1)
G1 X-1376.9995Y1546.0000Z14.0000F5000.0000
G0 X-1376.9995Y1546.0000Z20.0000
G0 X-1376.9995Y1546.0000Z50.0000
(FURO_D3_P1)
G0 X-1376.9995Y1498.0000Z50.0000
G0 X-1376.9995Y1498.0000Z20.0000
(Step:1/1)
G1 X-1376.9995Y1498.0000Z14.0000F5000.0000
G0 X-1376.9995Y1498.0000Z20.0000
G0 X-1376.9995Y1498.0000Z50.0000
(FURO_D3_P1)
G0 X-1376.9995Y1074.7000Z50.0000
G0 X-1376.9995Y1074.7000Z20.0000
(Step:1/1)
G1 X-1376.9995Y1074.7000Z14.0000F5000.0000
G0 X-1376.9995Y1074.7000Z20.0000
G0 X-1376.9995Y1074.7000Z50.0000
(FURO_D3_P1)
G0 X-1376.9995Y1026.7000Z50.0000
G0 X-1376.9995Y1026.7000Z20.0000
(Step:1/1)
G1 X-1376.9995Y1026.7000Z14.0000F5000.0000
G0 X-1376.9995Y1026.7000Z20.0000
G0 X-1376.9995Y1026.7000Z50.0000
(FURO_D3_P1)
G0 X-1376.9995Y603.3000Z50.0000
G0 X-1376.9995Y603.3000Z20.0000
(Step:1/1)
G1 X-1376.9995Y603.3000Z14.0000F5000.0000
G0 X-1376.9995Y603.3000Z20.0000
G0 X-1376.9995Y603.3000Z50.0000
(FURO_D3_P1)
G0 X-1376.9995Y555.3000Z50.0000
G0 X-1376.9995Y555.3000Z20.0000
(Step:1/1)
G1 X-1376.9995Y555.3000Z14.0000F5000.0000
G0 X-1376.9995Y555.3000Z20.0000
G0 X-1376.9995Y555.3000Z50.0000
(FURO_D3_P1)
G0 X-1376.9995Y132.0000Z50.0000
G0 X-1376.9995Y132.0000Z20.0000
(Step:1/1)
G1 X-1376.9995Y132.0000Z14.0000F5000.0000
G0 X-1376.9995Y132.0000Z20.0000
G0 X-1376.9995Y132.0000Z50.0000
(FURO_D3_P1)
G0 X-1376.9995Y84.0000Z50.0000
G0 X-1376.9995Y84.0000Z20.0000
(Step:1/1)
G1 X-1376.9995Y84.0000Z14.0000F5000.0000
G0 X-1376.9995Y84.0000Z20.0000
G0 X-1376.9995Y84.0000Z50.0000
(FURO_D6_P11)
G0 X-70.6111Y108.0000Z50.0000
G0 X-70.6111Y108.0000Z20.0000
(Step:1/2)
G1 X-70.6111Y108.0000Z8.0000F5000.0000
G0 X-70.6111Y108.0000Z20.0000
(Step:2/2)
G1 X-70.6111Y108.0000Z4.0000F5000.0000
G0 X-70.6111Y108.0000Z20.0000
G0 X-70.6111Y108.0000Z50.0000
(FURO_D6_P11)
G0 X-148.7091Y108.0000Z50.0000
G0 X-148.7091Y108.0000Z20.0000
(Step:1/2)
G1 X-148.7091Y108.0000Z8.0000F5000.0000
G0 X-148.7091Y108.0000Z20.0000
(Step:2/2)
G1 X-148.7091Y108.0000Z4.0000F5000.0000
G0 X-148.7091Y108.0000Z20.0000
G0 X-148.7091Y108.0000Z50.0000
(FURO_D6_P11)
G0 X-226.8071Y108.0000Z50.0000
G0 X-226.8071Y108.0000Z20.0000
(Step:1/2)
G1 X-226.8071Y108.0000Z8.0000F5000.0000
G0 X-226.8071Y108.0000Z20.0000
(Step:2/2)
G1 X-226.8071Y108.0000Z4.0000F5000.0000
G0 X-226.8071Y108.0000Z20.0000
G0 X-226.8071Y108.0000Z50.0000
(FURO_D6_P11)
G0 X-304.9052Y108.0000Z50.0000
G0 X-304.9052Y108.0000Z20.0000
(Step:1/2)
G1 X-304.9052Y108.0000Z8.0000F5000.0000
G0 X-304.9052Y108.0000Z20.0000
(Step:2/2)
G1 X-304.9052Y108.0000Z4.0000F5000.0000
G0 X-304.9052Y108.0000Z20.0000
G0 X-304.9052Y108.0000Z50.0000
(FURO_D6_P11)
G0 X-381.8035Y108.0000Z50.0000
G0 X-381.8035Y108.0000Z20.0000
(Step:1/2)
G1 X-381.8035Y108.0000Z8.0000F5000.0000
G0 X-381.8035Y108.0000Z20.0000
(Step:2/2)
G1 X-381.8035Y108.0000Z4.0000F5000.0000
G0 X-381.8035Y108.0000Z20.0000
G0 X-381.8035Y108.0000Z50.0000
(FURO_D6_P11)
G0 X-70.6111Y978.0000Z50.0000
G0 X-70.6111Y978.0000Z20.0000
(Step:1/2)
G1 X-70.6111Y978.0000Z8.0000F5000.0000
G0 X-70.6111Y978.0000Z20.0000
(Step:2/2)
G1 X-70.6111Y978.0000Z4.0000F5000.0000
G0 X-70.6111Y978.0000Z20.0000
G0 X-70.6111Y978.0000Z50.0000
(FURO_D6_P11)
G0 X-70.6111Y1186.1000Z50.0000
G0 X-70.6111Y1186.1000Z20.0000
(Step:1/2)
G1 X-70.6111Y1186.1000Z8.0000F5000.0000
G0 X-70.6111Y1186.1000Z20.0000
(Step:2/2)
G1 X-70.6111Y1186.1000Z4.0000F5000.0000
G0 X-70.6111Y1186.1000Z20.0000
G0 X-70.6111Y1186.1000Z50.0000
(FURO_D6_P11)
G0 X-148.7091Y1218.0000Z50.0000
G0 X-148.7091Y1218.0000Z20.0000
(Step:1/2)
G1 X-148.7091Y1218.0000Z8.0000F5000.0000
G0 X-148.7091Y1218.0000Z20.0000
(Step:2/2)
G1 X-148.7091Y1218.0000Z4.0000F5000.0000
G0 X-148.7091Y1218.0000Z20.0000
G0 X-148.7091Y1218.0000Z50.0000
(FURO_D6_P11)
G0 X-226.8071Y1218.0000Z50.0000
G0 X-226.8071Y1218.0000Z20.0000
(Step:1/2)
G1 X-226.8071Y1218.0000Z8.0000F5000.0000
G0 X-226.8071Y1218.0000Z20.0000
(Step:2/2)
G1 X-226.8071Y1218.0000Z4.0000F5000.0000
G0 X-226.8071Y1218.0000Z20.0000
G0 X-226.8071Y1218.0000Z50.0000
(FURO_D6_P11)
G0 X-304.9052Y1218.0000Z50.0000
G0 X-304.9052Y1218.0000Z20.0000
(Step:1/2)
G1 X-304.9052Y1218.0000Z8.0000F5000.0000
G0 X-304.9052Y1218.0000Z20.0000
(Step:2/2)
G1 X-304.9052Y1218.0000Z4.0000F5000.0000
G0 X-304.9052Y1218.0000Z20.0000
G0 X-304.9052Y1218.0000Z50.0000
(FURO_D6_P11)
G0 X-381.8035Y1218.0000Z50.0000
G0 X-381.8035Y1218.0000Z20.0000
(Step:1/2)
G1 X-381.8035Y1218.0000Z8.0000F5000.0000
G0 X-381.8035Y1218.0000Z20.0000
(Step:2/2)
G1 X-381.8035Y1218.0000Z4.0000F5000.0000
G0 X-381.8035Y1218.0000Z20.0000
G0 X-381.8035Y1218.0000Z50.0000
(FURO_D6_P11)
G0 X-338.9020Y1426.1000Z50.0000
G0 X-338.9020Y1426.1000Z20.0000
(Step:1/2)
G1 X-338.9020Y1426.1000Z8.0000F5000.0000
G0 X-338.9020Y1426.1000Z20.0000
(Step:2/2)
G1 X-338.9020Y1426.1000Z4.0000F5000.0000
G0 X-338.9020Y1426.1000Z20.0000
G0 X-338.9020Y1426.1000Z50.0000
(FURO_D6_P11)
G0 X-260.8040Y1426.1000Z50.0000
G0 X-260.8040Y1426.1000Z20.0000
(Step:1/2)
G1 X-260.8040Y1426.1000Z8.0000F5000.0000
G0 X-260.8040Y1426.1000Z20.0000
(Step:2/2)
G1 X-260.8040Y1426.1000Z4.0000F5000.0000
G0 X-260.8040Y1426.1000Z20.0000
G0 X-260.8040Y1426.1000Z50.0000
(FURO_D6_P11)
G0 X-182.7059Y1426.1000Z50.0000
G0 X-182.7059Y1426.1000Z20.0000
(Step:1/2)
G1 X-182.7059Y1426.1000Z8.0000F5000.0000
G0 X-182.7059Y1426.1000Z20.0000
(Step:2/2)
G1 X-182.7059Y1426.1000Z4.0000F5000.0000
G0 X-182.7059Y1426.1000Z20.0000
G0 X-182.7059Y1426.1000Z50.0000
(FURO_D6_P11)
G0 X-417.0000Y1736.1000Z50.0000
G0 X-417.0000Y1736.1000Z20.0000
(Step:1/2)
G1 X-417.0000Y1736.1000Z8.0000F5000.0000
G0 X-417.0000Y1736.1000Z20.0000
(Step:2/2)
G1 X-417.0000Y1736.1000Z4.0000F5000.0000
G0 X-417.0000Y1736.1000Z20.0000
G0 X-417.0000Y1736.1000Z50.0000
(FURO_D6_P11)
G0 X-552.0000Y1671.1000Z50.0000
G0 X-552.0000Y1671.1000Z20.0000
(Step:1/2)
G1 X-552.0000Y1671.1000Z8.0000F5000.0000
G0 X-552.0000Y1671.1000Z20.0000
(Step:2/2)
G1 X-552.0000Y1671.1000Z4.0000F5000.0000
G0 X-552.0000Y1671.1000Z20.0000
G0 X-552.0000Y1671.1000Z50.0000
(FURO_D6_P11)
G0 X-70.6111Y2056.1001Z50.0000
G0 X-70.6111Y2056.1001Z20.0000
(Step:1/2)
G1 X-70.6111Y2056.1001Z8.0000F5000.0000
G0 X-70.6111Y2056.1001Z20.0000
(Step:2/2)
G1 X-70.6111Y2056.1001Z4.0000F5000.0000
G0 X-70.6111Y2056.1001Z20.0000
G0 X-70.6111Y2056.1001Z50.0000
(FURO_D6_P11)
G0 X-182.7059Y2226.1001Z50.0000
G0 X-182.7059Y2226.1001Z20.0000
(Step:1/2)
G1 X-182.7059Y2226.1001Z8.0000F5000.0000
G0 X-182.7059Y2226.1001Z20.0000
(Step:2/2)
G1 X-182.7059Y2226.1001Z4.0000F5000.0000
G0 X-182.7059Y2226.1001Z20.0000
G0 X-182.7059Y2226.1001Z50.0000
(FURO_D6_P11)
G0 X-260.8040Y2296.1001Z50.0000
G0 X-260.8040Y2296.1001Z20.0000
(Step:1/2)
G1 X-260.8040Y2296.1001Z8.0000F5000.0000
G0 X-260.8040Y2296.1001Z20.0000
(Step:2/2)
G1 X-260.8040Y2296.1001Z4.0000F5000.0000
G0 X-260.8040Y2296.1001Z20.0000
G0 X-260.8040Y2296.1001Z50.0000
(FURO_D6_P11)
G0 X-338.9020Y2296.1001Z50.0000
G0 X-338.9020Y2296.1001Z20.0000
(Step:1/2)
G1 X-338.9020Y2296.1001Z8.0000F5000.0000
G0 X-338.9020Y2296.1001Z20.0000
(Step:2/2)
G1 X-338.9020Y2296.1001Z4.0000F5000.0000
G0 X-338.9020Y2296.1001Z20.0000
G0 X-338.9020Y2296.1001Z50.0000
(FURO_D6_P11)
G0 X-417.0000Y2536.1001Z50.0000
G0 X-417.0000Y2536.1001Z20.0000
(Step:1/2)
G1 X-417.0000Y2536.1001Z8.0000F5000.0000
G0 X-417.0000Y2536.1001Z20.0000
(Step:2/2)
G1 X-417.0000Y2536.1001Z4.0000F5000.0000
G0 X-417.0000Y2536.1001Z20.0000
G0 X-417.0000Y2536.1001Z50.0000
(FURO_D6_P11)
G0 X-552.0000Y2601.1001Z50.0000
G0 X-552.0000Y2601.1001Z20.0000
(Step:1/2)
G1 X-552.0000Y2601.1001Z8.0000F5000.0000
G0 X-552.0000Y2601.1001Z20.0000
(Step:2/2)
G1 X-552.0000Y2601.1001Z4.0000F5000.0000
G0 X-552.0000Y2601.1001Z20.0000
G0 X-552.0000Y2601.1001Z50.0000
(FURO_D6_P11)
G0 X-1662.0000Y2601.1001Z50.0000
G0 X-1662.0000Y2601.1001Z20.0000
(Step:1/2)
G1 X-1662.0000Y2601.1001Z8.0000F5000.0000
G0 X-1662.0000Y2601.1001Z20.0000
(Step:2/2)
G1 X-1662.0000Y2601.1001Z4.0000F5000.0000
G0 X-1662.0000Y2601.1001Z20.0000
G0 X-1662.0000Y2601.1001Z50.0000
(FURO_D6_P11)
G0 X-1797.0000Y2536.1001Z50.0000
G0 X-1797.0000Y2536.1001Z20.0000
(Step:1/2)
G1 X-1797.0000Y2536.1001Z8.0000F5000.0000
G0 X-1797.0000Y2536.1001Z20.0000
(Step:2/2)
G1 X-1797.0000Y2536.1001Z4.0000F5000.0000
G0 X-1797.0000Y2536.1001Z20.0000
G0 X-1797.0000Y2536.1001Z50.0000
(FURO_D6_P11)
G0 X-1797.0000Y1736.1000Z50.0000
G0 X-1797.0000Y1736.1000Z20.0000
(Step:1/2)
G1 X-1797.0000Y1736.1000Z8.0000F5000.0000
G0 X-1797.0000Y1736.1000Z20.0000
(Step:2/2)
G1 X-1797.0000Y1736.1000Z4.0000F5000.0000
G0 X-1797.0000Y1736.1000Z20.0000
G0 X-1797.0000Y1736.1000Z50.0000
(FURO_D6_P11)
G0 X-1662.0000Y1671.1000Z50.0000
G0 X-1662.0000Y1671.1000Z20.0000
(Step:1/2)
G1 X-1662.0000Y1671.1000Z8.0000F5000.0000
G0 X-1662.0000Y1671.1000Z20.0000
(Step:2/2)
G1 X-1662.0000Y1671.1000Z4.0000F5000.0000
G0 X-1662.0000Y1671.1000Z20.0000
G0 X-1662.0000Y1671.1000Z50.0000
( FERRAMENTA: 5 - broca 35 )

M6 T5 
M3 S2500.0000

(FURO_D35_P13)
G0 X-888.9015Y108.0000Z50.0000
G0 X-888.9015Y108.0000Z20.0000
(Step:1/1)
G1 X-888.9015Y108.0000Z2.0000F5000.0000
G0 X-888.9015Y108.0000Z20.0000
G0 X-888.9015Y108.0000Z50.0000
(FURO_D35_P13)
G0 X-888.9015Y579.3000Z50.0000
G0 X-888.9015Y579.3000Z20.0000
(Step:1/1)
G1 X-888.9015Y579.3000Z2.0000F5000.0000
G0 X-888.9015Y579.3000Z20.0000
G0 X-888.9015Y579.3000Z50.0000
(FURO_D35_P13)
G0 X-888.9015Y1050.7000Z50.0000
G0 X-888.9015Y1050.7000Z20.0000
(Step:1/1)
G1 X-888.9015Y1050.7000Z2.0000F5000.0000
G0 X-888.9015Y1050.7000Z20.0000
G0 X-888.9015Y1050.7000Z50.0000
(FURO_D35_P13)
G0 X-888.9015Y1522.0000Z50.0000
G0 X-888.9015Y1522.0000Z20.0000
(Step:1/1)
G1 X-888.9015Y1522.0000Z2.0000F5000.0000
G0 X-888.9015Y1522.0000Z20.0000
G0 X-888.9015Y1522.0000Z50.0000
(FURO_D35_P13)
G0 X-1382.4995Y1522.0000Z50.0000
G0 X-1382.4995Y1522.0000Z20.0000
(Step:1/1)
G1 X-1382.4995Y1522.0000Z2.0000F5000.0000
G0 X-1382.4995Y1522.0000Z20.0000
G0 X-1382.4995Y1522.0000Z50.0000
(FURO_D35_P13)
G0 X-1382.4995Y1050.7000Z50.0000
G0 X-1382.4995Y1050.7000Z20.0000
(Step:1/1)
G1 X-1382.4995Y1050.7000Z2.0000F5000.0000
G0 X-1382.4995Y1050.7000Z20.0000
G0 X-1382.4995Y1050.7000Z50.0000
(FURO_D35_P13)
G0 X-1382.4995Y579.3000Z50.0000
G0 X-1382.4995Y579.3000Z20.0000
(Step:1/1)
G1 X-1382.4995Y579.3000Z2.0000F5000.0000
G0 X-1382.4995Y579.3000Z20.0000
G0 X-1382.4995Y579.3000Z50.0000
(FURO_D35_P13)
G0 X-1382.4995Y108.0000Z50.0000
G0 X-1382.4995Y108.0000Z20.0000
(Step:1/1)
G1 X-1382.4995Y108.0000Z2.0000F5000.0000
G0 X-1382.4995Y108.0000Z20.0000
G0 X-1382.4995Y108.0000Z50.0000
( FERRAMENTA: 1 - Fresa 6mm )

M6 T1 
M3 S18000.0000

(PECA_P15 - 70 x 1070)
G0 X-108.6111Y17.6037Z50.0000
G0 X-108.6111Y17.6037Z20.0000
(Step:1/2)
G1 X-108.6111Y5.0000Z2.0000F1500.0000
G1 X-108.6111Y5.0000Z2.0000F10000.0000
G1 X-32.6111Y5.0000Z2.0000
G1 X-32.6111Y1081.0000Z2.0000
G1 X-108.6111Y1081.0000Z2.0000
G1 X-108.6111Y55.0000Z2.0000
G1 X-108.6111Y5.0000Z2.0000F7000.0000
G0 X-108.6111Y5.0000Z20.0000
G0 X-108.6111Y17.6037Z20.0000
G0 X-108.6111Y19.1442Z20.0000
(Step:2/2)
G1 X-108.6111Y5.0000Z-0.2000F1050.0000
G1 X-108.6111Y5.0000Z-0.2000F7000.0000
G1 X-32.6111Y5.0000Z-0.2000
G1 X-32.6111Y1081.0000Z-0.2000
G1 X-108.6111Y1081.0000Z-0.2000
G1 X-108.6111Y55.0000Z-0.2000
G1 X-108.6111Y5.0000Z-0.2000F4900.0000
G0 X-108.6111Y5.0000Z50.0000
(PECA_P15 - 70 x 1070)
G0 X-108.6111Y1095.7037Z50.0000
G0 X-108.6111Y1095.7037Z20.0000
(Step:1/2)
G1 X-108.6111Y1083.1000Z2.0000F1500.0000
G1 X-108.6111Y1083.1000Z2.0000F10000.0000
G1 X-32.6111Y1083.1000Z2.0000
G1 X-32.6111Y2159.1000Z2.0000
G1 X-108.6111Y2159.1000Z2.0000
G1 X-108.6111Y1133.1000Z2.0000
G1 X-108.6111Y1083.1000Z2.0000F7000.0000
G0 X-108.6111Y1083.1000Z20.0000
G0 X-108.6111Y1095.7037Z20.0000
G0 X-108.6111Y1097.2442Z20.0000
(Step:2/2)
G1 X-108.6111Y1083.1000Z-0.2000F1050.0000
G1 X-108.6111Y1083.1000Z-0.2000F7000.0000
G1 X-32.6111Y1083.1000Z-0.2000
G1 X-32.6111Y2159.1000Z-0.2000
G1 X-108.6111Y2159.1000Z-0.2000
G1 X-108.6111Y1133.1000Z-0.2000
G1 X-108.6111Y1083.1000Z-0.2000F4900.0000
G0 X-108.6111Y1083.1000Z50.0000
(PECA_P15 - 70 x 1310)
G0 X-186.7091Y17.6037Z50.0000
G0 X-186.7091Y17.6037Z20.0000
(Step:1/2)
G1 X-186.7091Y5.0000Z2.0000F1500.0000
G1 X-186.7091Y5.0000Z2.0000F10000.0000
G1 X-110.7091Y5.0000Z2.0000
G1 X-110.7091Y1321.0000Z2.0000
G1 X-186.7091Y1321.0000Z2.0000
G1 X-186.7091Y55.0000Z2.0000
G1 X-186.7091Y5.0000Z2.0000F7000.0000
G0 X-186.7091Y5.0000Z20.0000
G0 X-186.7091Y17.6037Z20.0000
G0 X-186.7091Y19.1442Z20.0000
(Step:2/2)
G1 X-186.7091Y5.0000Z-0.2000F1050.0000
G1 X-186.7091Y5.0000Z-0.2000F7000.0000
G1 X-110.7091Y5.0000Z-0.2000
G1 X-110.7091Y1321.0000Z-0.2000
G1 X-186.7091Y1321.0000Z-0.2000
G1 X-186.7091Y55.0000Z-0.2000
G1 X-186.7091Y5.0000Z-0.2000F4900.0000
G0 X-186.7091Y5.0000Z50.0000
(PECA_P15 - 70 x 1000)
G0 X-220.7059Y1335.7037Z50.0000
G0 X-220.7059Y1335.7037Z20.0000
(Step:1/2)
G1 X-220.7059Y1323.1000Z2.0000F1500.0000
G1 X-220.7059Y1323.1000Z2.0000F10000.0000
G1 X-144.7059Y1323.1000Z2.0000
G1 X-144.7059Y2329.1000Z2.0000
G1 X-220.7059Y2329.1000Z2.0000
G1 X-220.7059Y1373.1000Z2.0000
G1 X-220.7059Y1323.1000Z2.0000F7000.0000
G0 X-220.7059Y1323.1000Z20.0000
G0 X-220.7059Y1335.7037Z20.0000
G0 X-220.7059Y1337.2442Z20.0000
(Step:2/2)
G1 X-220.7059Y1323.1000Z-0.2000F1050.0000
G1 X-220.7059Y1323.1000Z-0.2000F7000.0000
G1 X-144.7059Y1323.1000Z-0.2000
G1 X-144.7059Y2329.1000Z-0.2000
G1 X-220.7059Y2329.1000Z-0.2000
G1 X-220.7059Y1373.1000Z-0.2000
G1 X-220.7059Y1323.1000Z-0.2000F4900.0000
G0 X-220.7059Y1323.1000Z50.0000
(PECA_P15 - 70 x 1310)
G0 X-264.8071Y17.6037Z50.0000
G0 X-264.8071Y17.6037Z20.0000
(Step:1/2)
G1 X-264.8071Y5.0000Z2.0000F1500.0000
G1 X-264.8071Y5.0000Z2.0000F10000.0000
G1 X-188.8071Y5.0000Z2.0000
G1 X-188.8071Y1321.0000Z2.0000
G1 X-264.8071Y1321.0000Z2.0000
G1 X-264.8071Y55.0000Z2.0000
G1 X-264.8071Y5.0000Z2.0000F7000.0000
G0 X-264.8071Y5.0000Z20.0000
G0 X-264.8071Y17.6037Z20.0000
G0 X-264.8071Y19.1442Z20.0000
(Step:2/2)
G1 X-264.8071Y5.0000Z-0.2000F1050.0000
G1 X-264.8071Y5.0000Z-0.2000F7000.0000
G1 X-188.8071Y5.0000Z-0.2000
G1 X-188.8071Y1321.0000Z-0.2000
G1 X-264.8071Y1321.0000Z-0.2000
G1 X-264.8071Y55.0000Z-0.2000
G1 X-264.8071Y5.0000Z-0.2000F4900.0000
G0 X-264.8071Y5.0000Z50.0000
(PECA_P15 - 69.99999999999997 x 1070)
G0 X-298.8040Y1335.7037Z50.0000
G0 X-298.8040Y1335.7037Z20.0000
(Step:1/2)
G1 X-298.8040Y1323.1000Z2.0000F1500.0000
G1 X-298.8040Y1323.1000Z2.0000F10000.0000
G1 X-222.8040Y1323.1000Z2.0000
G1 X-222.8040Y2399.1000Z2.0000
G1 X-298.8040Y2399.1000Z2.0000
G1 X-298.8040Y1373.1000Z2.0000
G1 X-298.8040Y1323.1000Z2.0000F7000.0000
G0 X-298.8040Y1323.1000Z20.0000
G0 X-298.8040Y1335.7037Z20.0000
G0 X-298.8040Y1337.2442Z20.0000
(Step:2/2)
G1 X-298.8040Y1323.1000Z-0.2000F1050.0000
G1 X-298.8040Y1323.1000Z-0.2000F7000.0000
G1 X-222.8040Y1323.1000Z-0.2000
G1 X-222.8040Y2399.1000Z-0.2000
G1 X-298.8040Y2399.1000Z-0.2000
G1 X-298.8040Y1373.1000Z-0.2000
G1 X-298.8040Y1323.1000Z-0.2000F4900.0000
G0 X-298.8040Y1323.1000Z50.0000
(PECA_P15 - 70 x 1310)
G0 X-342.9052Y17.6037Z50.0000
G0 X-342.9052Y17.6037Z20.0000
(Step:1/2)
G1 X-342.9052Y5.0000Z2.0000F1500.0000
G1 X-342.9052Y5.0000Z2.0000F10000.0000
G1 X-266.9052Y5.0000Z2.0000
G1 X-266.9052Y1321.0000Z2.0000
G1 X-342.9052Y1321.0000Z2.0000
G1 X-342.9052Y55.0000Z2.0000
G1 X-342.9052Y5.0000Z2.0000F7000.0000
G0 X-342.9052Y5.0000Z20.0000
G0 X-342.9052Y17.6037Z20.0000
G0 X-342.9052Y19.1442Z20.0000
(Step:2/2)
G1 X-342.9052Y5.0000Z-0.2000F1050.0000
G1 X-342.9052Y5.0000Z-0.2000F7000.0000
G1 X-266.9052Y5.0000Z-0.2000
G1 X-266.9052Y1321.0000Z-0.2000
G1 X-342.9052Y1321.0000Z-0.2000
G1 X-342.9052Y55.0000Z-0.2000
G1 X-342.9052Y5.0000Z-0.2000F4900.0000
G0 X-342.9052Y5.0000Z50.0000
(PECA_P15 - 70 x 1070)
G0 X-376.9020Y1335.7037Z50.0000
G0 X-376.9020Y1335.7037Z20.0000
(Step:1/2)
G1 X-376.9020Y1323.1000Z2.0000F1500.0000
G1 X-376.9020Y1323.1000Z2.0000F10000.0000
G1 X-300.9020Y1323.1000Z2.0000
G1 X-300.9020Y2399.1000Z2.0000
G1 X-376.9020Y2399.1000Z2.0000
G1 X-376.9020Y1373.1000Z2.0000
G1 X-376.9020Y1323.1000Z2.0000F7000.0000
G0 X-376.9020Y1323.1000Z20.0000
G0 X-376.9020Y1335.7037Z20.0000
G0 X-376.9020Y1337.2442Z20.0000
(Step:2/2)
G1 X-376.9020Y1323.1000Z-0.2000F1050.0000
G1 X-376.9020Y1323.1000Z-0.2000F7000.0000
G1 X-300.9020Y1323.1000Z-0.2000
G1 X-300.9020Y2399.1000Z-0.2000
G1 X-376.9020Y2399.1000Z-0.2000
G1 X-376.9020Y1373.1000Z-0.2000
G1 X-376.9020Y1323.1000Z-0.2000F4900.0000
G0 X-376.9020Y1323.1000Z50.0000
(PECA_P15 - 70 x 1310)
G0 X-419.8035Y17.6037Z50.0000
G0 X-419.8035Y17.6037Z20.0000
(Step:1/2)
G1 X-419.8035Y5.0000Z2.0000F1500.0000
G1 X-419.8035Y5.0000Z2.0000F10000.0000
G1 X-343.8035Y5.0000Z2.0000
G1 X-343.8035Y1321.0000Z2.0000
G1 X-419.8035Y1321.0000Z2.0000
G1 X-419.8035Y55.0000Z2.0000
G1 X-419.8035Y5.0000Z2.0000F7000.0000
G0 X-419.8035Y5.0000Z20.0000
G0 X-419.8035Y17.6037Z20.0000
G0 X-419.8035Y19.1442Z20.0000
(Step:2/2)
G1 X-419.8035Y5.0000Z-0.2000F1050.0000
G1 X-419.8035Y5.0000Z-0.2000F7000.0000
G1 X-343.8035Y5.0000Z-0.2000
G1 X-343.8035Y1321.0000Z-0.2000
G1 X-419.8035Y1321.0000Z-0.2000
G1 X-419.8035Y55.0000Z-0.2000
G1 X-419.8035Y5.0000Z-0.2000F4900.0000
G0 X-419.8035Y5.0000Z50.0000
(PECA_P15 - 485.5 x 1614)
G0 X-913.4015Y19.1442Z50.0000
G0 X-913.4015Y19.1442Z20.0000
(Step:1/1)
G1 X-913.4015Y5.0000Z-0.2000F1500.0000
G1 X-913.4015Y5.0000Z-0.2000F10000.0000
G1 X-421.9015Y5.0000Z-0.2000
G1 X-421.9015Y1625.0000Z-0.2000
G1 X-913.4015Y1625.0000Z-0.2000
G1 X-913.4015Y55.0000Z-0.2000
G1 X-913.4015Y5.0000Z-0.2000F7000.0000
G0 X-913.4015Y5.0000Z50.0000
(PECA_P15 - 485.5 x 1614)
G0 X-1406.9995Y19.1442Z50.0000
G0 X-1406.9995Y19.1442Z20.0000
(Step:1/1)
G1 X-1406.9995Y5.0000Z-0.2000F1500.0000
G1 X-1406.9995Y5.0000Z-0.2000F10000.0000
G1 X-915.4995Y5.0000Z-0.2000
G1 X-915.4995Y1625.0000Z-0.2000
G1 X-1406.9995Y1625.0000Z-0.2000
G1 X-1406.9995Y55.0000Z-0.2000
G1 X-1406.9995Y5.0000Z-0.2000F7000.0000
G0 X-1406.9995Y5.0000Z50.0000
(PECA_P15 - 1450 x 1000)
G0 X-393.1442Y1633.1000Z50.0000
G0 X-393.1442Y1633.1000Z20.0000
(Step:1/1)
G1 X-379.0000Y1633.1000Z-0.2000F1500.0000
G1 X-379.0000Y1633.1000Z-0.2000F10000.0000
G1 X-379.0000Y2639.1000Z-0.2000
G1 X-1835.0000Y2639.1000Z-0.2000
G1 X-1835.0000Y1633.1000Z-0.2000
G1 X-429.0000Y1633.1000Z-0.2000
G1 X-379.0000Y1633.1000Z-0.2000F7000.0000
G0 X-379.0000Y1633.1000Z50.0000
(PECA_P15 - 420 x 1620)
G0 X-1820.8558Y1631.0000Z50.0000
G0 X-1820.8558Y1631.0000Z20.0000
(Step:1/1)
G1 X-1835.0000Y1631.0000Z-0.2000F1500.0000
G1 X-1835.0000Y1631.0000Z-0.2000F10000.0000
G1 X-1835.0000Y5.0000Z-0.2000
G1 X-1409.0000Y5.0000Z-0.2000
G1 X-1409.0000Y1631.0000Z-0.2000
G1 X-1785.0000Y1631.0000Z-0.2000
G1 X-1835.0000Y1631.0000Z-0.2000F7000.0000
G0 X-1835.0000Y1631.0000Z50.0000
(######## FOOTER ########)
M5 
G53Z0
M750
M30

