( Powered by Mach CNC )
( Criacao: 2026-02-12T17:28:00 )
( Pos processador:  Mach3D Corte  - TURBO )
( Versao:  26.2.10 )
( Lote:  hellena_Branco Diamante ACE 18mm_1.nc )
( Material:  Branco Diamante (ACE) 18mm )
( Dimensoes:  X:1840.0000 Y:2750.0000 Z:18.0000 )
( Ferramentas para execucao: )
( 5 - broca 35 )
( 3 - broca 4 )
( 1 - Fresa 6mm )
( 6 - Fresa Vbit 45 )

(######## HEADER ########)
G53Z0 
M752 (Logica Inicial)



M6 T3 
M3 S2500.0000

(FURO_D3_P1)
G0 X-1805.0000Y2314.1074Z53.0000
G0 X-1805.0000Y2314.1074Z23.0000
(Step:1/1)
G1 X-1805.0000Y2314.1074Z17.0000F5000.0000
G0 X-1805.0000Y2314.1074Z23.0000
G0 X-1805.0000Y2314.1074Z53.0000
(FURO_D3_P1)
G0 X-1805.0000Y2362.1074Z53.0000
G0 X-1805.0000Y2362.1074Z23.0000
(Step:1/1)
G1 X-1805.0000Y2362.1074Z17.0000F5000.0000
G0 X-1805.0000Y2362.1074Z23.0000
G0 X-1805.0000Y2362.1074Z53.0000
(FURO_D3_P1)
G0 X-1805.0000Y2589.1074Z53.0000
G0 X-1805.0000Y2589.1074Z23.0000
(Step:1/1)
G1 X-1805.0000Y2589.1074Z17.0000F5000.0000
G0 X-1805.0000Y2589.1074Z23.0000
G0 X-1805.0000Y2589.1074Z53.0000
(FURO_D3_P1)
G0 X-1805.0000Y2637.1074Z53.0000
G0 X-1805.0000Y2637.1074Z23.0000
(Step:1/1)
G1 X-1805.0000Y2637.1074Z17.0000F5000.0000
G0 X-1805.0000Y2637.1074Z23.0000
G0 X-1805.0000Y2637.1074Z53.0000
( FERRAMENTA: 5 - broca 35 )

M6 T5 
M3 S2500.0000

(FURO_D35_P13)
G0 X-1810.5000Y2338.1074Z53.0000
G0 X-1810.5000Y2338.1074Z23.0000
(Step:1/1)
G1 X-1810.5000Y2338.1074Z5.0000F5000.0000
G0 X-1810.5000Y2338.1074Z23.0000
G0 X-1810.5000Y2338.1074Z53.0000
(FURO_D35_P13)
G0 X-1810.5000Y2613.1074Z53.0000
G0 X-1810.5000Y2613.1074Z23.0000
(Step:1/1)
G1 X-1810.5000Y2613.1074Z5.0000F5000.0000
G0 X-1810.5000Y2613.1074Z23.0000
G0 X-1810.5000Y2613.1074Z53.0000
( FERRAMENTA: 6 - Fresa Vbit 45 )

M6 T6 
M3 S18000.0000

(FRESA_45_P18 - 0 x 544)
G0 X-728.1001Y535.8252Z53.0000
G0 X-728.1001Y535.8252Z23.0000
(Step:1/1)
G1 X-728.1001Y552.0000Z-0.1000F1000.0000
G1 X-728.1001Y552.0000Z-0.1000F4000.0000
G1 X-728.1001Y8.0000Z-0.1000
G1 X-728.1001Y552.0000Z-0.1000
G0 X-728.1001Y552.0000Z53.0000
(FRESA_45_P18 - 544 x 0)
G0 X-673.8253Y139.5000Z53.0000
G0 X-673.8253Y139.5000Z23.0000
(Step:1/1)
G1 X-690.0001Y139.5000Z-0.1000F1000.0000
G1 X-690.0001Y139.5000Z-0.1000F4000.0000
G1 X-146.0001Y139.5000Z-0.1000
G1 X-690.0001Y139.5000Z-0.1000
G0 X-690.0001Y139.5000Z53.0000
(FRESA_45_P18 - 544 x 0)
G0 X-673.8253Y301.0000Z53.0000
G0 X-673.8253Y301.0000Z23.0000
(Step:1/1)
G1 X-690.0001Y301.0000Z-0.1000F1000.0000
G1 X-690.0001Y301.0000Z-0.1000F4000.0000
G1 X-146.0001Y301.0000Z-0.1000
G1 X-690.0001Y301.0000Z-0.1000
G0 X-690.0001Y301.0000Z53.0000
(FRESA_45_P18 - 0 x 543,9999999999998)
G0 X-1192.4000Y2257.9247Z53.0000
G0 X-1192.4000Y2257.9247Z23.0000
(Step:1/1)
G1 X-1192.4000Y2274.0995Z-0.1000F1000.0000
G1 X-1192.4000Y2274.0995Z-0.1000F4000.0000
G1 X-1192.4000Y1730.0995Z-0.1000
G1 X-1192.4000Y2274.0995Z-0.1000
G0 X-1192.4000Y2274.0995Z53.0000
(FRESA_45_P18 - 544,0000000000001 x 0)
G0 X-1483.7252Y2655.6060Z53.0000
G0 X-1483.7252Y2655.6060Z23.0000
(Step:1/1)
G1 X-1499.9000Y2655.6060Z-0.1000F1000.0000
G1 X-1499.9000Y2655.6060Z-0.1000F4000.0000
G1 X-955.9000Y2655.6060Z-0.1000
G1 X-1499.9000Y2655.6060Z-0.1000
G0 X-1499.9000Y2655.6060Z53.0000
(FRESA_45_P18 - 544 x 0)
G0 X-843.4253Y2655.6060Z53.0000
G0 X-843.4253Y2655.6060Z23.0000
(Step:1/1)
G1 X-859.6001Y2655.6060Z-0.1000F1000.0000
G1 X-859.6001Y2655.6060Z-0.1000F4000.0000
G1 X-315.6001Y2655.6060Z-0.1000
G1 X-859.6001Y2655.6060Z-0.1000
G0 X-859.6001Y2655.6060Z53.0000
(FRESA_45_P18 - 294 x 0)
G0 X-1815.8252Y2688.1074Z53.0000
G0 X-1815.8252Y2688.1074Z23.0000
(Step:1/1)
G1 X-1832.0000Y2688.1074Z-0.1000F1000.0000
G1 X-1832.0000Y2688.1074Z-0.1000F4000.0000
G1 X-1538.0000Y2688.1074Z-0.1000
G1 X-1832.0000Y2688.1074Z-0.1000
G0 X-1832.0000Y2688.1074Z53.0000
( FERRAMENTA: 1 - Fresa 6mm )

M6 T1 
M3 S18000.0000

(PECA_P18 - 131.5 x 543.9999999999998)
G0 X-1189.4000Y2262.3951Z53.0000
G0 X-1189.4000Y2262.3951Z23.0000
(Step:1/2)
G1 X-1189.4000Y2277.0995Z2.0000F1500.0000
G1 X-1189.4000Y2277.0995Z2.0000F10000.0000
G1 X-1326.9000Y2277.0995Z2.0000
G1 X-1326.9000Y1727.0995Z2.0000
G1 X-1189.4000Y1727.0995Z2.0000
G1 X-1189.4000Y2227.0995Z2.0000
G1 X-1189.4000Y2277.0995Z2.0000F7000.0000
G0 X-1189.4000Y2277.0995Z23.0000
G0 X-1189.4000Y2262.3951Z23.0000
G0 X-1189.4000Y2260.8547Z23.0000
(Step:2/2)
G1 X-1189.4000Y2277.0995Z-0.2000F1050.0000
G1 X-1189.4000Y2277.0995Z-0.2000F7000.0000
G1 X-1326.9000Y2277.0995Z-0.2000
G1 X-1326.9000Y1727.0995Z-0.2000
G1 X-1189.4000Y1727.0995Z-0.2000
G1 X-1189.4000Y2227.0995Z-0.2000
G1 X-1189.4000Y2277.0995Z-0.2000F4900.0000
G0 X-1189.4000Y2277.0995Z53.0000
(PECA_P18 - 544 x 131.5)
G0 X-327.3045Y2521.1060Z53.0000
G0 X-327.3045Y2521.1060Z23.0000
(Step:1/2)
G1 X-312.6001Y2521.1060Z2.0000F1500.0000
G1 X-312.6001Y2521.1060Z2.0000F10000.0000
G1 X-312.6001Y2658.6060Z2.0000
G1 X-862.6001Y2658.6060Z2.0000
G1 X-862.6001Y2521.1060Z2.0000
G1 X-362.6001Y2521.1060Z2.0000
G1 X-312.6001Y2521.1060Z2.0000F7000.0000
G0 X-312.6001Y2521.1060Z23.0000
G0 X-327.3045Y2521.1060Z23.0000
G0 X-328.8449Y2521.1060Z23.0000
(Step:2/2)
G1 X-312.6001Y2521.1060Z-0.2000F1050.0000
G1 X-312.6001Y2521.1060Z-0.2000F7000.0000
G1 X-312.6001Y2658.6060Z-0.2000
G1 X-862.6001Y2658.6060Z-0.2000
G1 X-862.6001Y2521.1060Z-0.2000
G1 X-362.6001Y2521.1060Z-0.2000
G1 X-312.6001Y2521.1060Z-0.2000F4900.0000
G0 X-312.6001Y2521.1060Z53.0000
(PECA_P18 - 544.0000000000001 x 131.5)
G0 X-967.6044Y2521.1060Z53.0000
G0 X-967.6044Y2521.1060Z23.0000
(Step:1/2)
G1 X-952.9000Y2521.1060Z2.0000F1500.0000
G1 X-952.9000Y2521.1060Z2.0000F10000.0000
G1 X-952.9000Y2658.6060Z2.0000
G1 X-1502.9000Y2658.6060Z2.0000
G1 X-1502.9000Y2521.1060Z2.0000
G1 X-1002.9000Y2521.1060Z2.0000
G1 X-952.9000Y2521.1060Z2.0000F7000.0000
G0 X-952.9000Y2521.1060Z23.0000
G0 X-967.6044Y2521.1060Z23.0000
G0 X-969.1448Y2521.1060Z23.0000
(Step:2/2)
G1 X-952.9000Y2521.1060Z-0.2000F1050.0000
G1 X-952.9000Y2521.1060Z-0.2000F7000.0000
G1 X-952.9000Y2658.6060Z-0.2000
G1 X-1502.9000Y2658.6060Z-0.2000
G1 X-1502.9000Y2521.1060Z-0.2000
G1 X-1002.9000Y2521.1060Z-0.2000
G1 X-952.9000Y2521.1060Z-0.2000F4900.0000
G0 X-952.9000Y2521.1060Z53.0000
(PECA_P18 - 70 x 1250)
G0 X-940.7001Y1277.8024Z53.0000
G0 X-940.7001Y1277.8024Z23.0000
(Step:1/2)
G1 X-940.7001Y1263.0980Z2.0000F1500.0000
G1 X-940.7001Y1263.0980Z2.0000F10000.0000
G1 X-864.7001Y1263.0980Z2.0000
G1 X-864.7001Y2519.0980Z2.0000
G1 X-940.7001Y2519.0980Z2.0000
G1 X-940.7001Y1313.0980Z2.0000
G1 X-940.7001Y1263.0980Z2.0000F7000.0000
G0 X-940.7001Y1263.0980Z23.0000
G0 X-940.7001Y1277.8024Z23.0000
G0 X-940.7001Y1279.3428Z23.0000
(Step:2/2)
G1 X-940.7001Y1263.0980Z-0.2000F1050.0000
G1 X-940.7001Y1263.0980Z-0.2000F7000.0000
G1 X-864.7001Y1263.0980Z-0.2000
G1 X-864.7001Y2519.0980Z-0.2000
G1 X-940.7001Y2519.0980Z-0.2000
G1 X-940.7001Y1313.0980Z-0.2000
G1 X-940.7001Y1263.0980Z-0.2000F4900.0000
G0 X-940.7001Y1263.0980Z53.0000
(PECA_P18 - 70 x 1250)
G0 X-1018.8000Y1277.8024Z53.0000
G0 X-1018.8000Y1277.8024Z23.0000
(Step:1/2)
G1 X-1018.8000Y1263.0980Z2.0000F1500.0000
G1 X-1018.8000Y1263.0980Z2.0000F10000.0000
G1 X-942.8000Y1263.0980Z2.0000
G1 X-942.8000Y2519.0980Z2.0000
G1 X-1018.8000Y2519.0980Z2.0000
G1 X-1018.8000Y1313.0980Z2.0000
G1 X-1018.8000Y1263.0980Z2.0000F7000.0000
G0 X-1018.8000Y1263.0980Z23.0000
G0 X-1018.8000Y1277.8024Z23.0000
G0 X-1018.8000Y1279.3428Z23.0000
(Step:2/2)
G1 X-1018.8000Y1263.0980Z-0.2000F1050.0000
G1 X-1018.8000Y1263.0980Z-0.2000F7000.0000
G1 X-942.8000Y1263.0980Z-0.2000
G1 X-942.8000Y2519.0980Z-0.2000
G1 X-1018.8000Y2519.0980Z-0.2000
G1 X-1018.8000Y1313.0980Z-0.2000
G1 X-1018.8000Y1263.0980Z-0.2000F4900.0000
G0 X-1018.8000Y1263.0980Z53.0000
(PECA_P18 - 544 x 131.5)
G0 X-678.2958Y142.5000Z53.0000
G0 X-678.2958Y142.5000Z23.0000
(Step:1/2)
G1 X-693.0001Y142.5000Z2.0000F1500.0000
G1 X-693.0001Y142.5000Z2.0000F10000.0000
G1 X-693.0001Y5.0000Z2.0000
G1 X-143.0001Y5.0000Z2.0000
G1 X-143.0001Y142.5000Z2.0000
G1 X-643.0001Y142.5000Z2.0000
G1 X-693.0001Y142.5000Z2.0000F7000.0000
G0 X-693.0001Y142.5000Z23.0000
G0 X-678.2958Y142.5000Z23.0000
G0 X-676.7553Y142.5000Z23.0000
(Step:2/2)
G1 X-693.0001Y142.5000Z-0.2000F1050.0000
G1 X-693.0001Y142.5000Z-0.2000F7000.0000
G1 X-693.0001Y5.0000Z-0.2000
G1 X-143.0001Y5.0000Z-0.2000
G1 X-143.0001Y142.5000Z-0.2000
G1 X-643.0001Y142.5000Z-0.2000
G1 X-693.0001Y142.5000Z-0.2000F4900.0000
G0 X-693.0001Y142.5000Z53.0000
(PECA_P18 - 131.5 x 544)
G0 X-862.6001Y19.7044Z53.0000
G0 X-862.6001Y19.7044Z23.0000
(Step:1/2)
G1 X-862.6001Y5.0000Z2.0000F1500.0000
G1 X-862.6001Y5.0000Z2.0000F10000.0000
G1 X-725.1001Y5.0000Z2.0000
G1 X-725.1001Y555.0000Z2.0000
G1 X-862.6001Y555.0000Z2.0000
G1 X-862.6001Y55.0000Z2.0000
G1 X-862.6001Y5.0000Z2.0000F7000.0000
G0 X-862.6001Y5.0000Z23.0000
G0 X-862.6001Y19.7044Z23.0000
G0 X-862.6001Y21.2448Z23.0000
(Step:2/2)
G1 X-862.6001Y5.0000Z-0.2000F1050.0000
G1 X-862.6001Y5.0000Z-0.2000F7000.0000
G1 X-725.1001Y5.0000Z-0.2000
G1 X-725.1001Y555.0000Z-0.2000
G1 X-862.6001Y555.0000Z-0.2000
G1 X-862.6001Y55.0000Z-0.2000
G1 X-862.6001Y5.0000Z-0.2000F4900.0000
G0 X-862.6001Y5.0000Z53.0000
(PECA_P18 - 70 x 1250)
G0 X-940.7001Y19.7044Z53.0000
G0 X-940.7001Y19.7044Z23.0000
(Step:1/2)
G1 X-940.7001Y5.0000Z2.0000F1500.0000
G1 X-940.7001Y5.0000Z2.0000F10000.0000
G1 X-864.7001Y5.0000Z2.0000
G1 X-864.7001Y1261.0000Z2.0000
G1 X-940.7001Y1261.0000Z2.0000
G1 X-940.7001Y55.0000Z2.0000
G1 X-940.7001Y5.0000Z2.0000F7000.0000
G0 X-940.7001Y5.0000Z23.0000
G0 X-940.7001Y19.7044Z23.0000
G0 X-940.7001Y21.2448Z23.0000
(Step:2/2)
G1 X-940.7001Y5.0000Z-0.2000F1050.0000
G1 X-940.7001Y5.0000Z-0.2000F7000.0000
G1 X-864.7001Y5.0000Z-0.2000
G1 X-864.7001Y1261.0000Z-0.2000
G1 X-940.7001Y1261.0000Z-0.2000
G1 X-940.7001Y55.0000Z-0.2000
G1 X-940.7001Y5.0000Z-0.2000F4900.0000
G0 X-940.7001Y5.0000Z53.0000
(PECA_P18 - 70 x 1250)
G0 X-1018.8000Y19.7044Z53.0000
G0 X-1018.8000Y19.7044Z23.0000
(Step:1/2)
G1 X-1018.8000Y5.0000Z2.0000F1500.0000
G1 X-1018.8000Y5.0000Z2.0000F10000.0000
G1 X-942.8000Y5.0000Z2.0000
G1 X-942.8000Y1261.0000Z2.0000
G1 X-1018.8000Y1261.0000Z2.0000
G1 X-1018.8000Y55.0000Z2.0000
G1 X-1018.8000Y5.0000Z2.0000F7000.0000
G0 X-1018.8000Y5.0000Z23.0000
G0 X-1018.8000Y19.7044Z23.0000
G0 X-1018.8000Y21.2448Z23.0000
(Step:2/2)
G1 X-1018.8000Y5.0000Z-0.2000F1050.0000
G1 X-1018.8000Y5.0000Z-0.2000F7000.0000
G1 X-942.8000Y5.0000Z-0.2000
G1 X-942.8000Y1261.0000Z-0.2000
G1 X-1018.8000Y1261.0000Z-0.2000
G1 X-1018.8000Y55.0000Z-0.2000
G1 X-1018.8000Y5.0000Z-0.2000F4900.0000
G0 X-1018.8000Y5.0000Z53.0000
(PECA_P18 - 544 x 131.5)
G0 X-157.7045Y166.5000Z53.0000
G0 X-157.7045Y166.5000Z23.0000
(Step:1/2)
G1 X-143.0001Y166.5000Z2.0000F1500.0000
G1 X-143.0001Y166.5000Z2.0000F10000.0000
G1 X-143.0001Y304.0000Z2.0000
G1 X-693.0001Y304.0000Z2.0000
G1 X-693.0001Y166.5000Z2.0000
G1 X-193.0001Y166.5000Z2.0000
G1 X-143.0001Y166.5000Z2.0000F7000.0000
G0 X-143.0001Y166.5000Z23.0000
G0 X-157.7045Y166.5000Z23.0000
G0 X-159.2449Y166.5000Z23.0000
(Step:2/2)
G1 X-143.0001Y166.5000Z-0.2000F1050.0000
G1 X-143.0001Y166.5000Z-0.2000F7000.0000
G1 X-143.0001Y304.0000Z-0.2000
G1 X-693.0001Y304.0000Z-0.2000
G1 X-693.0001Y166.5000Z-0.2000
G1 X-193.0001Y166.5000Z-0.2000
G1 X-143.0001Y166.5000Z-0.2000F4900.0000
G0 X-143.0001Y166.5000Z53.0000
(PECA_P18 - 500 x 1690)
G0 X-1329.0000Y1684.7552Z53.0000
G0 X-1329.0000Y1684.7552Z23.0000
(Step:1/1)
G1 X-1329.0000Y1701.0000Z-0.2000F1500.0000
G1 X-1329.0000Y1701.0000Z-0.2000F10000.0000
G1 X-1835.0000Y1701.0000Z-0.2000
G1 X-1835.0000Y5.0000Z-0.2000
G1 X-1329.0000Y5.0000Z-0.2000
G1 X-1329.0000Y1651.0000Z-0.2000
G1 X-1329.0000Y1701.0000Z-0.2000F7000.0000
G0 X-1329.0000Y1701.0000Z53.0000
(PECA_P18 - 500 x 530)
G0 X-1329.0000Y2216.8547Z53.0000
G0 X-1329.0000Y2216.8547Z23.0000
(Step:1/1)
G1 X-1329.0000Y2233.0995Z-0.2000F1500.0000
G1 X-1329.0000Y2233.0995Z-0.2000F10000.0000
G1 X-1835.0000Y2233.0995Z-0.2000
G1 X-1835.0000Y1697.0995Z-0.2000
G1 X-1329.0000Y1697.0995Z-0.2000
G1 X-1329.0000Y2183.0995Z-0.2000
G1 X-1329.0000Y2233.0995Z-0.2000F7000.0000
G0 X-1329.0000Y2233.0995Z53.0000
(PECA_P18 - 294 x 450)
G0 X-1535.0000Y2674.8626Z53.0000
G0 X-1535.0000Y2674.8626Z23.0000
(Step:1/1)
G1 X-1535.0000Y2691.1074Z-0.2000F1500.0000
G1 X-1535.0000Y2691.1074Z-0.2000F10000.0000
G1 X-1835.0000Y2691.1074Z-0.2000
G1 X-1835.0000Y2235.1074Z-0.2000
G1 X-1535.0000Y2235.1074Z-0.2000
G1 X-1535.0000Y2641.1074Z-0.2000
G1 X-1535.0000Y2691.1074Z-0.2000F7000.0000
G0 X-1535.0000Y2691.1074Z53.0000
(SOBRA_P18 - 721 x 1956)
G0 X-135.0000Y2502.7552Z53.0000
G0 X-135.0000Y2502.7552Z23.0000
(Step:1/1)
G1 X-135.0000Y2519.0000Z-0.2000F1500.0000
G1 X-135.0000Y2519.0000Z-0.2000F10000.0000
G1 X-862.0000Y2519.0000Z-0.2000
G1 X-862.0000Y557.0000Z-0.2000
G1 X-135.0000Y557.0000Z-0.2000
G1 X-135.0000Y2469.0000Z-0.2000
G1 X-135.0000Y2519.0000Z-0.2000F7000.0000
G0 X-135.0000Y2519.0000Z53.0000
(PECA_P18 - 300 x 1690)
G0 X-1310.6552Y1701.0000Z53.0000
G0 X-1310.6552Y1701.0000Z23.0000
(Step:1/1)
G1 X-1326.9000Y1701.0000Z-0.2000F1500.0000
G1 X-1326.9000Y1701.0000Z-0.2000F10000.0000
G1 X-1326.9000Y5.0000Z-0.2000
G1 X-1020.9000Y5.0000Z-0.2000
G1 X-1020.9000Y1701.0000Z-0.2000
G1 X-1276.9000Y1701.0000Z-0.2000
G1 X-1326.9000Y1701.0000Z-0.2000F7000.0000
G0 X-1326.9000Y1701.0000Z53.0000
(######## FOOTER ########)
M5 
G53Z0
M750
M30

