(TURBO_DNA_ASPIRE)
 
G53 Z0
M752
 
(########_Troca_de_Ferramentas_########)
(Numero_da_Ferramenta:1)
(Descricao:Topo Raso (6 milímetros))
 
M6 T1
M3 S18000
 
G0 X-170.0000 Y66.0000 
G0   Z30.0800
G1   Z25.0000 F2500.0
G1  Y70.0000 Z21.0000 
G1 X-178.5500  Z12.4500 
G1 X-191.1000   F10000.0
X-824.0000  
 Y66.0000 
X-170.0000  
 Y70.0000 
X-178.5500  
G1 X-191.1000  Z-0.1000 F2500.0
G1 X-824.0000   F10000.0
 Y66.0000 
X-170.0000  
 Y70.0000 
X-178.5500  
X-191.1000  
G0   Z30.0800
G0 X-170.0000 Y137.0000 
G1   Z25.0000 F2500.0
G1  Y141.0000 Z21.0000 
G1 X-178.5500  Z12.4500 
G1 X-191.1000   F10000.0
X-824.0000  
 Y137.0000 
X-170.0000  
 Y141.0000 
X-178.5500  
G1 X-191.1000  Z-0.1000 F2500.0
G1 X-824.0000   F10000.0
 Y137.0000 
X-170.0000  
 Y141.0000 
X-178.5500  
X-191.1000  
G0   Z30.0800
G0 X-170.0000 Y208.0000 
G1   Z25.0000 F2500.0
G1  Y212.0000 Z21.0000 
G1 X-178.5500  Z12.4500 
G1 X-191.1000   F10000.0
X-824.0000  
 Y208.0000 
X-170.0000  
 Y212.0000 
X-178.5500  
G1 X-191.1000  Z-0.1000 F2500.0
G1 X-824.0000   F10000.0
 Y208.0000 
X-170.0000  
 Y212.0000 
X-178.5500  
X-191.1000  
G0   Z30.0800
G0 X-170.0000 Y279.0000 
G1   Z25.0000 F2500.0
G1  Y283.0000 Z21.0000 
G1 X-178.5500  Z12.4500 
G1 X-191.1000   F10000.0
X-824.0000  
 Y279.0000 
X-170.0000  
 Y283.0000 
X-178.5500  
G1 X-191.1000  Z-0.1000 F2500.0
G1 X-824.0000   F10000.0
 Y279.0000 
X-170.0000  
 Y283.0000 
X-178.5500  
X-191.1000  
G0   Z30.0800
G0 X-170.0000 Y350.0000 
G1   Z25.0000 F2500.0
G1  Y354.0000 Z21.0000 
G1 X-178.5500  Z12.4500 
G1 X-191.1000   F10000.0
X-824.0000  
 Y350.0000 
X-170.0000  
 Y354.0000 
X-178.5500  
G1 X-191.1000  Z-0.1000 F2500.0
G1 X-824.0000   F10000.0
 Y350.0000 
X-170.0000  
 Y354.0000 
X-178.5500  
X-191.1000  
G0   Z30.0800
G0 X-170.0000 Y421.0000 
G1   Z25.0000 F2500.0
G1  Y425.0000 Z21.0000 
G1 X-178.5500  Z12.4500 
G1 X-191.1000   F10000.0
X-824.0000  
 Y421.0000 
X-170.0000  
 Y425.0000 
X-178.5500  
G1 X-191.1000  Z-0.1000 F2500.0
G1 X-824.0000   F10000.0
 Y421.0000 
X-170.0000  
 Y425.0000 
X-178.5500  
X-191.1000  
G0   Z30.0800
G0 X-170.0000 Y492.0000 
G1   Z25.0000 F2500.0
G1  Y496.0000 Z21.0000 
G1 X-178.5500  Z12.4500 
G1 X-191.1000   F10000.0
X-824.0000  
 Y492.0000 
X-170.0000  
 Y496.0000 
X-178.5500  
G1 X-191.1000  Z-0.1000 F2500.0
G1 X-824.0000   F10000.0
 Y492.0000 
X-170.0000  
 Y496.0000 
X-178.5500  
X-191.1000  
G0   Z30.0800
G0 X-170.0000 Y563.0000 
G1   Z25.0000 F2500.0
G1  Y567.0000 Z21.0000 
G1 X-178.5500  Z12.4500 
G1 X-191.1000   F10000.0
X-824.0000  
 Y563.0000 
X-170.0000  
 Y567.0000 
X-178.5500  
G1 X-191.1000  Z-0.1000 F2500.0
G1 X-824.0000   F10000.0
 Y563.0000 
X-170.0000  
 Y567.0000 
X-178.5500  
X-191.1000  
G0   Z30.0800
G0 X-170.0000 Y634.0000 
G1   Z25.0000 F2500.0
G1  Y638.0000 Z21.0000 
G1 X-178.5500  Z12.4500 
G1 X-191.1000   F10000.0
X-824.0000  
 Y634.0000 
X-170.0000  
 Y638.0000 
X-178.5500  
G1 X-191.1000  Z-0.1000 F2500.0
G1 X-824.0000   F10000.0
 Y634.0000 
X-170.0000  
 Y638.0000 
X-178.5500  
X-191.1000  
G0   Z30.0800
G0 X-170.0000 Y705.0000 
G1   Z25.0000 F2500.0
G1  Y709.0000 Z21.0000 
G1 X-178.5500  Z12.4500 
G1 X-191.1000   F10000.0
X-824.0000  
 Y705.0000 
X-170.0000  
 Y709.0000 
X-178.5500  
G1 X-191.1000  Z-0.1000 F2500.0
G1 X-824.0000   F10000.0
 Y705.0000 
X-170.0000  
 Y709.0000 
X-178.5500  
X-191.1000  
G0   Z30.0800
G0 X-170.0000 Y776.0000 
G1   Z25.0000 F2500.0
G1  Y780.0000 Z21.0000 
G1 X-178.5500  Z12.4500 
G1 X-191.1000   F10000.0
X-824.0000  
 Y776.0000 
X-170.0000  
 Y780.0000 
X-178.5500  
G1 X-191.1000  Z-0.1000 F2500.0
G1 X-824.0000   F10000.0
 Y776.0000 
X-170.0000  
 Y780.0000 
X-178.5500  
X-191.1000  
G0   Z30.0800
G0 X-170.0000 Y847.0000 
G1   Z25.0000 F2500.0
G1  Y851.0000 Z21.0000 
G1 X-178.5500  Z12.4500 
G1 X-191.1000   F10000.0
X-824.0000  
 Y847.0000 
X-170.0000  
 Y851.0000 
X-178.5500  
G1 X-191.1000  Z-0.1000 F2500.0
G1 X-824.0000   F10000.0
 Y847.0000 
X-170.0000  
 Y851.0000 
X-178.5500  
X-191.1000  
G0   Z30.0800
G0 X-170.0000 Y918.0000 
G1   Z25.0000 F2500.0
G1  Y922.0000 Z21.0000 
G1 X-178.5500  Z12.4500 
G1 X-191.1000   F10000.0
X-824.0000  
 Y918.0000 
X-170.0000  
 Y922.0000 
X-178.5500  
G1 X-191.1000  Z-0.1000 F2500.0
G1 X-824.0000   F10000.0
 Y918.0000 
X-170.0000  
 Y922.0000 
X-178.5500  
X-191.1000  
G0   Z30.0800
G0 X-170.0000 Y989.0000 
G1   Z25.0000 F2500.0
G1  Y993.0000 Z21.0000 
G1 X-178.5500  Z12.4500 
G1 X-191.1000   F10000.0
X-824.0000  
 Y989.0000 
X-170.0000  
 Y993.0000 
X-178.5500  
G1 X-191.1000  Z-0.1000 F2500.0
G1 X-824.0000   F10000.0
 Y989.0000 
X-170.0000  
 Y993.0000 
X-178.5500  
X-191.1000  
G0   Z30.0800
G0 X-170.0000 Y1060.0000 
G1   Z25.0000 F2500.0
G1  Y1064.0000 Z21.0000 
G1 X-178.5500  Z12.4500 
G1 X-191.1000   F10000.0
X-824.0000  
 Y1060.0000 
X-170.0000  
 Y1064.0000 
X-178.5500  
G1 X-191.1000  Z-0.1000 F2500.0
G1 X-824.0000   F10000.0
 Y1060.0000 
X-170.0000  
 Y1064.0000 
X-178.5500  
X-191.1000  
G0   Z30.0800
G0 X-170.0000 Y1131.0000 
G1   Z25.0000 F2500.0
G1  Y1135.0000 Z21.0000 
G1 X-178.5500  Z12.4500 
G1 X-191.1000   F10000.0
X-824.0000  
 Y1131.0000 
X-170.0000  
 Y1135.0000 
X-178.5500  
G1 X-191.1000  Z-0.1000 F2500.0
G1 X-824.0000   F10000.0
 Y1131.0000 
X-170.0000  
 Y1135.0000 
X-178.5500  
X-191.1000  
G0   Z30.0800
G0 X-170.0000 Y1202.0000 
G1   Z25.0000 F2500.0
G1  Y1206.0000 Z21.0000 
G1 X-178.5500  Z12.4500 
G1 X-191.1000   F10000.0
X-824.0000  
 Y1202.0000 
X-170.0000  
 Y1206.0000 
X-178.5500  
G1 X-191.1000  Z-0.1000 F2500.0
G1 X-824.0000   F10000.0
 Y1202.0000 
X-170.0000  
 Y1206.0000 
X-178.5500  
X-191.1000  
G0   Z30.0800
G0 X-170.0000 Y1273.0000 
G1   Z25.0000 F2500.0
G1  Y1277.0000 Z21.0000 
G1 X-178.5500  Z12.4500 
G1 X-191.1000   F10000.0
X-824.0000  
 Y1273.0000 
X-170.0000  
 Y1277.0000 
X-178.5500  
G1 X-191.1000  Z-0.1000 F2500.0
G1 X-824.0000   F10000.0
 Y1273.0000 
X-170.0000  
 Y1277.0000 
X-178.5500  
X-191.1000  
G0   Z30.0800
G0 X-170.0000 Y1344.0000 
G1   Z25.0000 F2500.0
G1  Y1348.0000 Z21.0000 
G1 X-178.5500  Z12.4500 
G1 X-191.1000   F10000.0
X-824.0000  
 Y1344.0000 
X-170.0000  
 Y1348.0000 
X-178.5500  
G1 X-191.1000  Z-0.1000 F2500.0
G1 X-824.0000   F10000.0
 Y1344.0000 
X-170.0000  
 Y1348.0000 
X-178.5500  
X-191.1000  
G0   Z30.0800
G0 X-170.0000 Y1415.0000 
G1   Z25.0000 F2500.0
G1  Y1419.0000 Z21.0000 
G1 X-178.5500  Z12.4500 
G1 X-191.1000   F10000.0
X-824.0000  
 Y1415.0000 
X-170.0000  
 Y1419.0000 
X-178.5500  
G1 X-191.1000  Z-0.1000 F2500.0
G1 X-824.0000   F10000.0
 Y1415.0000 
X-170.0000  
 Y1419.0000 
X-178.5500  
X-191.1000  
G0   Z30.0800
G0 X-170.0000 Y1486.0000 
G1   Z25.0000 F2500.0
G1  Y1490.0000 Z21.0000 
G1 X-178.5500  Z12.4500 
G1 X-191.1000   F10000.0
X-824.0000  
 Y1486.0000 
X-170.0000  
 Y1490.0000 
X-178.5500  
G1 X-191.1000  Z-0.1000 F2500.0
G1 X-824.0000   F10000.0
 Y1486.0000 
X-170.0000  
 Y1490.0000 
X-178.5500  
X-191.1000  
G0   Z30.0800
G0 X-170.0000 Y1557.0000 
G1   Z25.0000 F2500.0
G1  Y1561.0000 Z21.0000 
G1 X-178.5500  Z12.4500 
G1 X-191.1000   F10000.0
X-824.0000  
 Y1557.0000 
X-170.0000  
 Y1561.0000 
X-178.5500  
G1 X-191.1000  Z-0.1000 F2500.0
G1 X-824.0000   F10000.0
 Y1557.0000 
X-170.0000  
 Y1561.0000 
X-178.5500  
X-191.1000  
G0   Z30.0800
G0 X-170.0000 Y1628.0000 
G1   Z25.0000 F2500.0
G1  Y1632.0000 Z21.0000 
G1 X-178.5500  Z12.4500 
G1 X-191.1000   F10000.0
X-824.0000  
 Y1628.0000 
X-170.0000  
 Y1632.0000 
X-178.5500  
G1 X-191.1000  Z-0.1000 F2500.0
G1 X-824.0000   F10000.0
 Y1628.0000 
X-170.0000  
 Y1632.0000 
X-178.5500  
X-191.1000  
G0   Z30.0800
G0 X-170.0000 Y1699.0000 
G1   Z25.0000 F2500.0
G1  Y1703.0000 Z21.0000 
G1 X-178.5500  Z12.4500 
G1 X-191.1000   F10000.0
X-824.0000  
 Y1699.0000 
X-170.0000  
 Y1703.0000 
X-178.5500  
G1 X-191.1000  Z-0.1000 F2500.0
G1 X-824.0000   F10000.0
 Y1699.0000 
X-170.0000  
 Y1703.0000 
X-178.5500  
X-191.1000  
G0   Z30.0800
G0 X-170.0000 Y1770.0000 
G1   Z25.0000 F2500.0
G1  Y1774.0000 Z21.0000 
G1 X-178.5500  Z12.4500 
G1 X-191.1000   F10000.0
X-824.0000  
 Y1770.0000 
X-170.0000  
 Y1774.0000 
X-178.5500  
G1 X-191.1000  Z-0.1000 F2500.0
G1 X-824.0000   F10000.0
 Y1770.0000 
X-170.0000  
 Y1774.0000 
X-178.5500  
X-191.1000  
G0   Z30.0800
G0 X-170.0000 Y1841.0000 
G1   Z25.0000 F2500.0
G1  Y1845.0000 Z21.0000 
G1 X-178.5500  Z12.4500 
G1 X-191.1000   F10000.0
X-824.0000  
 Y1841.0000 
X-170.0000  
 Y1845.0000 
X-178.5500  
G1 X-191.1000  Z-0.1000 F2500.0
G1 X-824.0000   F10000.0
 Y1841.0000 
X-170.0000  
 Y1845.0000 
X-178.5500  
X-191.1000  
G0   Z30.0800
G0 X-170.0000 Y1912.0000 
G1   Z25.0000 F2500.0
G1  Y1916.0000 Z21.0000 
G1 X-178.5500  Z12.4500 
G1 X-191.1000   F10000.0
X-824.0000  
 Y1912.0000 
X-170.0000  
 Y1916.0000 
X-178.5500  
G1 X-191.1000  Z-0.1000 F2500.0
G1 X-824.0000   F10000.0
 Y1912.0000 
X-170.0000  
 Y1916.0000 
X-178.5500  
X-191.1000  
G0   Z30.0800
G0 X-170.0000 Y1983.0000 
G1   Z25.0000 F2500.0
G1  Y1987.0000 Z21.0000 
G1 X-178.5500  Z12.4500 
G1 X-191.1000   F10000.0
X-824.0000  
 Y1983.0000 
X-170.0000  
 Y1987.0000 
X-178.5500  
G1 X-191.1000  Z-0.1000 F2500.0
G1 X-824.0000   F10000.0
 Y1983.0000 
X-170.0000  
 Y1987.0000 
X-178.5500  
X-191.1000  
G0   Z30.0800
G0 X-170.0000 Y2054.0000 
G1   Z25.0000 F2500.0
G1  Y2058.0000 Z21.0000 
G1 X-178.5500  Z12.4500 
G1 X-191.1000   F10000.0
X-824.0000  
 Y2054.0000 
X-170.0000  
 Y2058.0000 
X-178.5500  
G1 X-191.1000  Z-0.1000 F2500.0
G1 X-824.0000   F10000.0
 Y2054.0000 
X-170.0000  
 Y2058.0000 
X-178.5500  
X-191.1000  
G0   Z30.0800
 
M5
G53 Z0
M702
M704
M30
